!!!!SEGMENT: pl-cz--iii-592--007_rygall-ignacy--applaudite-jubilate-coro-vivat-provincialis-wiktor.krn
!!!cenid: 17xx:1101
!!!COM: Rygall, Ignacy
!!!COM-rismID: pe30110281
!!!CDT: <1750->1799
!!!CNT:
!!!OPR: Applaudite jubilate
!!!OTL: Coro - Vivat Provincialis Wiktor
!!!OMV: 007
!!!PDT:
!!!AGN:
!!!SMS-siglum: PL-CZ
!!!SMS-shelfmark: III-592
!!!SMS-shelfwork: 001-007 M
!!!SMS-variant: Canto 1mo: PL-CZ III-592 27:3
!!!SMS-altvar: Canto 1mo: PL-CZ III-592 27:4
!!!NIFC-rismSourceID: 300001121
!!!NIFC-rismChildID: 300001121
!!!NIFC-islandoraID: pl-cz:39438
!!!URL-pdf-islandora: https://repozytorium.nifc.pl/islandora/object/pl-cz%3A39438/datastream/PDF/view
!!!URL-scan:
!!!ONB-nifc: UWAGA: części Applaudite jubilate: Euntre, Basso solo – Applaudite jubilate,
!!!AIN: 5 empty 2 oboe 1 timpa 2 violn 1 vox
!!!key: D-
**kern	**dynam	**kern	**dynam	**kern	**dynam	**kern	**text	**text	**kern	**text	**text	**kern	**text	**text	**kern	**kern	**dynam	**kern	**dynam	**kern	**kern
*part11	*part11	*part10	*part10	*part9	*part9	*part8	*part8	*part8	*part7	*part7	*part7	*part6	*part6	*part6	*part5	*part4	*part4	*part3	*part3	*part2	*part1
*staff11	*	*staff10	*	*staff9	*	*staff8	*staff8	*staff8	*staff7	*staff7	*staff7	*staff6	*staff6	*staff6	*staff5	*staff4	*	*staff3	*	*staff2	*staff1
*Iempty	*	*Ivioln	*	*Ivioln	*	*Iempty	*	*	*Iempty	*	*	*Ivox	*	*	*Itimpa	*Iempty	*	*Iempty	*	*Ioboe	*Ioboe
*I"Baſso	*	*I"Violino Secundo	*	*I"Violino Primo	*	*I"Baſso Solo	*	*	*I"Canto IIdo	*	*	*I"Canto 1mo	*	*	*I"Tympano	*I"Cornu 2do in D.	*	*I"Cornu 1mo in D	*	*I"Oboe IIdo	*I"Oboe 1mo
*I'Baſso	*	*I'Violino Secundo	*	*I'Violino Primo	*	*I'Baſso Solo	*	*	*I'Canto IIdo	*	*	*I'Canto 1mo	*	*	*I'Tympano	*I'Cornu 2do in D.	*	*I'Cornu 1mo in D	*	*I'Oboe IIdo	*I'Oboe 1mo
*ICstr	*	*ICstr	*	*ICstr	*	*ICvox	*	*	*ICvox	*	*	*ICvox	*	*	*ICidio	*ICbras	*	*ICbras	*	*ICww	*ICww
*IG	*	*	*	*	*	*IGsolo	*	*	*IGcoro	*	*	*IGcoro	*	*	*	*	*	*	*	*	*
*clefF4	*	*clefG2	*	*clefG2	*	*clefF4	*	*	*clefC1	*	*	*clefC1	*	*	*clefF4	*clefG2	*	*clefG2	*	*clefG2	*clefG2
*	*	*	*	*	*	*	*	*	*	*	*	*	*	*	*	*ITrd6c10	*	*ITrd6c10	*	*	*
*k[f#c#]	*	*k[f#c#]	*	*k[f#c#]	*	*k[f#c#]	*	*	*k[f#c#]	*	*	*k[f#c#]	*	*	*k[f#c#]	*k[f#c#]	*	*k[f#c#]	*	*k[f#c#]	*k[f#c#]
*D-:	*	*D-:	*	*D-:	*	*D-:	*	*	*D-:	*	*	*D-:	*	*	*D-:	*D-:	*	*D-:	*	*D-:	*D-:
*M4/4	*	*M4/4	*	*M4/4	*	*M4/4	*	*	*M4/4	*	*	*M4/4	*	*	*M4/4	*M4/4	*	*M4/4	*	*M4/4	*M4/4
*met(c)	*	*met(c)	*	*met(c)	*	*met(c)	*	*	*met(c)	*	*	*met(c)	*	*	*met(c)	*met(c)	*	*met(c)	*	*met(c)	*met(c)
!LO:TX:b:t=Coro	!	!	!	!	!	!	!	!	!	!	!	!LO:TX:t=P:problem=kolejność znaków f# cc#	!	!	!	!	!	!	!	!	!
!LO:TX:a:t=allo vivace	!	!LO:TX:a:t=Coro	!	!LO:TX:t=P:p = p:problem	!	!LO:TX:a:t=26	!	!	!	!	!	!LO:TX:b:t=Choro	!	!	!	!	!	!	!	!	!
!LO:TX:t=P:p = p:problem	!	!LO:TX:a:t=allo&colon;	!	!LO:TX:a:t=Coro	!	!LO:TX:a:t=allo vivace	!	!	!LO:TX:b:t=Coro	!	!	!LO:TX:a:t=allo vivace	!	!	!LO:TX:b:t=Coro	!	!	!	!	!	!LO:TX:a:t=Choro Tace
*all\right	*	*all\right	*	*all\right	*	*all\right	*	*	*all\right	*	*	*all\right	*	*	*all\right	*all\right	*	*all\right	*	*all\right	*all\right
*2\right	*	*2\right	*	*2\right	*	*2\right	*	*	*2\right	*	*	*2\right	*	*	*2\right	*2\right	*	*2\right	*	*2\right	*2\right
!	!	!	!	!	!LO:DY:b:t=p	!	!	!	!	!	!	!	!	!	!	!	!	!	!	!	!
8r	p	8f#/	.	8a/	p	8r	.	.	8r	.	.	8r	.	.	8ryy	8r	.	8ryy	.	8ryy	8ryy
=1	=1	=1	=1	=1	=1	=1	=1	=1	=1	=1	=1	=1	=1	=1	=1	=1	=1	=1	=1	=1	=1
*tremolo	*	*	*	*	*	*	*	*	*	*	*	*	*	*	*	*	*	*	*	*	*
!	!	!	!	!	!	!	!	!	!	!	!	!	!	!	!	!LO:TX:a:t=allo vivace in D	!	!	!	!	!
!	!	!	!	!	!	!	!	!	!	!	!	!	!	!	!	!LO:TX:b:t=Coro	!	!	!	!	!
!	!	!	!	!	!	!	!	!	!	!	!	!	!	!	!	!	!LO:DY:b:t=p:	!	!	!	!
8D\L	.	16f#/LL	.	4dd\	.	1r	.	.	1r	.	.	1r	.	.	4D\	4F#/	p	4d\	p	1ryy	1ryy
.	.	16a/	.	.	.	.	.	.	.	.	.	.	.	.	.	.	.	.	.	.	.
8D\	.	16f#/	.	.	.	.	.	.	.	.	.	.	.	.	.	.	.	.	.	.	.
.	.	16a/JJ	.	.	.	.	.	.	.	.	.	.	.	.	.	.	.	.	.	.	.
8D\	.	16f#/LL	.	8dd\L	.	.	.	.	.	.	.	.	.	.	4r	8F#/L	.	8d\L	.	.	.
.	.	16a/	.	.	.	.	.	.	.	.	.	.	.	.	.	.	.	.	.	.	.
8D\J	.	16f#/	.	8dd\J	.	.	.	.	.	.	.	.	.	.	.	8F#/J	.	8d\J	.	.	.
.	.	16a/JJ	.	.	.	.	.	.	.	.	.	.	.	.	.	.	.	.	.	.	.
8D\L	.	16f#/LL	.	4dd\	.	.	.	.	.	.	.	.	.	.	2r	4.F#/	.	4d\	.	.	.
.	.	16a/	.	.	.	.	.	.	.	.	.	.	.	.	.	.	.	.	.	.	.
8D\	.	16f#/	.	.	.	.	.	.	.	.	.	.	.	.	.	.	.	.	.	.	.
.	.	16a/JJ	.	.	.	.	.	.	.	.	.	.	.	.	.	.	.	.	.	.	.
8D\	.	16f#/LL	.	4dd\	.	.	.	.	.	.	.	.	.	.	.	.	.	4d\	.	.	.
.	.	16a/	.	.	.	.	.	.	.	.	.	.	.	.	.	.	.	.	.	.	.
8D\J	.	16f#/	.	.	.	.	.	.	.	.	.	.	.	.	.	8F#/	.	.	.	.	.
.	.	16a/JJ	.	.	.	.	.	.	.	.	.	.	.	.	.	.	.	.	.	.	.
=2	=2	=2	=2	=2	=2	=2	=2	=2	=2	=2	=2	=2	=2	=2	=2	=2	=2	=2	=2	=2	=2
8E\L	.	16f#/LL	.	4dd\	.	1r	.	.	1r	.	.	1r	.	.	1r	4F#/	.	4d\	.	1ryy	1ryy
.	.	16a/	.	.	.	.	.	.	.	.	.	.	.	.	.	.	.	.	.	.	.
8E\	.	16f#/	.	.	.	.	.	.	.	.	.	.	.	.	.	.	.	.	.	.	.
.	.	16a/JJ	.	.	.	.	.	.	.	.	.	.	.	.	.	.	.	.	.	.	.
8E\	.	16g/LL	.	4cc#\	.	.	.	.	.	.	.	.	.	.	.	4A/	.	4e\	.	.	.
.	.	16a/	.	.	.	.	.	.	.	.	.	.	.	.	.	.	.	.	.	.	.
8E\J	.	16g/	.	.	.	.	.	.	.	.	.	.	.	.	.	.	.	.	.	.	.
.	.	16a/JJ	.	.	.	.	.	.	.	.	.	.	.	.	.	.	.	.	.	.	.
8E\L	.	16g/LL	.	4cc#\	.	.	.	.	.	.	.	.	.	.	.	4A/	.	4e\	.	.	.
.	.	16a/	.	.	.	.	.	.	.	.	.	.	.	.	.	.	.	.	.	.	.
8E\	.	16g/	.	.	.	.	.	.	.	.	.	.	.	.	.	.	.	.	.	.	.
.	.	16a/JJ	.	.	.	.	.	.	.	.	.	.	.	.	.	.	.	.	.	.	.
8E\	.	16g/LL	.	8r	.	.	.	.	.	.	.	.	.	.	.	4r	.	4r	.	.	.
.	.	16a/	.	.	.	.	.	.	.	.	.	.	.	.	.	.	.	.	.	.	.
8E\J	.	16g/	.	8a\	.	.	.	.	.	.	.	.	.	.	.	.	.	.	.	.	.
.	.	16a/JJ	.	.	.	.	.	.	.	.	.	.	.	.	.	.	.	.	.	.	.
=3	=3	=3	=3	=3	=3	=3	=3	=3	=3	=3	=3	=3	=3	=3	=3	=3	=3	=3	=3	=3	=3
*Xtremolo	*	*	*	*	*	*	*	*	*	*	*	*	*	*	*	*	*	*	*	*	*
8C#/L	.	16e/LL	.	4gg\	.	1r	.	.	1r	.	.	1r	.	.	4AA/	4A/	.	4e\	.	1ryy	1ryy
.	.	16a/	.	.	.	.	.	.	.	.	.	.	.	.	.	.	.	.	.	.	.
8AA/	.	16e/	.	.	.	.	.	.	.	.	.	.	.	.	.	.	.	.	.	.	.
.	.	16a/JJ	.	.	.	.	.	.	.	.	.	.	.	.	.	.	.	.	.	.	.
!	!	!LO:LB:g=original	!	!	!	!	!	!	!	!	!	!	!	!	!	!	!	!	!	!	!
8C#/	.	16e/LL	.	8gg\L	.	.	.	.	.	.	.	.	.	.	4r	8A/L	.	8e\L	.	.	.
.	.	16a/	.	.	.	.	.	.	.	.	.	.	.	.	.	.	.	.	.	.	.
8AA/J	.	16e/	.	8gg\J	.	.	.	.	.	.	.	.	.	.	.	8A/J	.	8e\J	.	.	.
.	.	16a/JJ	.	.	.	.	.	.	.	.	.	.	.	.	.	.	.	.	.	.	.
8C#/L	.	16e/LL	.	4gg\	.	.	.	.	.	.	.	.	.	.	2r	4A/	.	4e\	.	.	.
.	.	16a/	.	.	.	.	.	.	.	.	.	.	.	.	.	.	.	.	.	.	.
8AA/	.	16e/	.	.	.	.	.	.	.	.	.	.	.	.	.	.	.	.	.	.	.
.	.	16a/JJ	.	.	.	.	.	.	.	.	.	.	.	.	.	.	.	.	.	.	.
8C#/	.	16e/LL	.	4gg\	.	.	.	.	.	.	.	.	.	.	.	4e\	.	4g\	.	.	.
.	.	16a/	.	.	.	.	.	.	.	.	.	.	.	.	.	.	.	.	.	.	.
8AA/J	.	16e/	.	.	.	.	.	.	.	.	.	.	.	.	.	.	.	.	.	.	.
.	.	16a/JJ	.	.	.	.	.	.	.	.	.	.	.	.	.	.	.	.	.	.	.
=4	=4	=4	=4	=4	=4	=4	=4	=4	=4	=4	=4	=4	=4	=4	=4	=4	=4	=4	=4	=4	=4
*tremolo	*	*	*	*	*	*	*	*	*	*	*	*	*	*	*	*	*	*	*	*	*
8D\L	.	16f#/LL	.	4gg\	.	1r	.	.	1r	.	.	1r	.	.	4D\	4e\	.	4g\	.	1ryy	1ryy
.	.	16a/	.	.	.	.	.	.	.	.	.	.	.	.	.	.	.	.	.	.	.
8D\	.	16f#/	.	.	.	.	.	.	.	.	.	.	.	.	.	.	.	.	.	.	.
.	.	16a/JJ	.	.	.	.	.	.	.	.	.	.	.	.	.	.	.	.	.	.	.
8D\	.	16f#/LL	.	4ff#\	.	.	.	.	.	.	.	.	.	.	4r	4d\	.	4f#\	.	.	.
.	.	16a/	.	.	.	.	.	.	.	.	.	.	.	.	.	.	.	.	.	.	.
8D\J	.	16f#/	.	.	.	.	.	.	.	.	.	.	.	.	.	.	.	.	.	.	.
.	.	16a/JJ	.	.	.	.	.	.	.	.	.	.	.	.	.	.	.	.	.	.	.
8D\L	.	16f#/LL	.	4ff#\	.	.	.	.	.	.	.	.	.	.	2r	4d\	.	4f#\	.	.	.
.	.	16a/	.	.	.	.	.	.	.	.	.	.	.	.	.	.	.	.	.	.	.
8D\	.	16f#/	.	.	.	.	.	.	.	.	.	.	.	.	.	.	.	.	.	.	.
.	.	16a/JJ	.	.	.	.	.	.	.	.	.	.	.	.	.	.	.	.	.	.	.
8D\	.	4r	.	8ff#\L	.	.	.	.	.	.	.	.	.	.	.	4r	.	4r	.	.	.
8D\J	.	.	.	8dd\J	.	.	.	.	.	.	.	.	.	.	.	.	.	.	.	.	.
=5	=5	=5	=5	=5	=5	=5	=5	=5	=5	=5	=5	=5	=5	=5	=5	=5	=5	=5	=5	=5	=5
*	*	*	*	*^	*	*	*	*	*	*	*	*	*	*	*	*	*	*	*	*	*
!	!	!	!	!LO:TX:t=P:problem=mixed beam	!	!	!	!	!	!	!	!	!	!	!	!	!	!	!	!	!	!
!	!	!	!	!	!	!LO:DY:b:t=mezo	!	!	!	!	!	!	!	!	!	!	!	!	!	!LO:DY:b:t=mezof	!	!
4D\|	.	2r	.	16a/LL	2rgyy	mf	1r	.	.	1r	.	.	1r	.	.	4D\	1d	.	1f#	mf	1ryy	1ryy
.	.	.	.	16aa\	.	.	.	.	.	.	.	.	.	.	.	.	.	.	.	.	.	.
.	.	.	.	16a/	.	.	.	.	.	.	.	.	.	.	.	.	.	.	.	.	.	.
.	.	.	.	16aa\JJ	.	.	.	.	.	.	.	.	.	.	.	.	.	.	.	.	.	.
!	!	!	!	!LO:LB:g=original	!	!	!	!	!	!	!	!	!	!	!	!	!	!	!	!	!	!
!	!	!	!	!LO:TX:t=P:problem=mixed beam	!	!	!	!	!	!	!	!	!	!	!	!	!	!	!	!	!	!
4F#\|	.	.	.	16a/LL	.	.	.	.	.	.	.	.	.	.	.	4r	.	.	.	.	.	.
.	.	.	.	16aa\	.	.	.	.	.	.	.	.	.	.	.	.	.	.	.	.	.	.
.	.	.	.	16a/	.	.	.	.	.	.	.	.	.	.	.	.	.	.	.	.	.	.
.	.	.	.	16aa\JJ	.	.	.	.	.	.	.	.	.	.	.	.	.	.	.	.	.	.
*	*	*	*	*tremolo	*	*	*	*	*	*	*	*	*	*	*	*	*	*	*	*	*	*
4A\|	.	4r	.	16aa\LL	16a\LL	.	.	.	.	.	.	.	.	.	.	2r	.	.	.	.	.	.
.	.	.	.	16aa\	16a\	.	.	.	.	.	.	.	.	.	.	.	.	.	.	.	.	.
.	.	.	.	16aa\	16a\	.	.	.	.	.	.	.	.	.	.	.	.	.	.	.	.	.
.	.	.	.	16aa\	16a\	.	.	.	.	.	.	.	.	.	.	.	.	.	.	.	.	.
!	!	!	!LO:DY:a	!	!	!	!	!	!	!	!	!	!	!	!	!	!	!	!	!	!	!
!	!LO:DY:b:t=mez:	!	!LO:DY:b:t=mezo:	!	!	!	!	!	!	!	!	!	!	!	!	!	!	!	!	!	!	!
4d\|	mf	4A/ 4f#	mf	16aa\	16a\	.	.	.	.	.	.	.	.	.	.	.	.	.	.	.	.	.
.	.	.	.	16aa\	16a\	.	.	.	.	.	.	.	.	.	.	.	.	.	.	.	.	.
.	.	.	.	16aa\	16a\	.	.	.	.	.	.	.	.	.	.	.	.	.	.	.	.	.
.	.	.	.	16aa\JJ	16a\JJ	.	.	.	.	.	.	.	.	.	.	.	.	.	.	.	.	.
=6	=6	=6	=6	=6	=6	=6	=6	=6	=6	=6	=6	=6	=6	=6	=6	=6	=6	=6	=6	=6	=6	=6
*	*	*^	*	*	*	*	*	*	*	*	*	*	*	*	*	*	*	*	*	*	*	*
(4c#\	.	8g/	1A	.	16aa\LL	16a/LL	.	1r	.	.	1r	.	.	1r	.	.	4AA/	1A	.	1e	.	1ryy	1ryy
.	.	.	.	.	16aa\	16a/	.	.	.	.	.	.	.	.	.	.	.	.	.	.	.	.	.
.	.	4g/	.	.	16aa\	16a/	.	.	.	.	.	.	.	.	.	.	.	.	.	.	.	.	.
.	.	.	.	.	16aa\	16a/	.	.	.	.	.	.	.	.	.	.	.	.	.	.	.	.	.
4e\)	.	.	.	.	16aa\	16a/	.	.	.	.	.	.	.	.	.	.	4D\	.	.	.	.	.	.
.	.	.	.	.	16aa\	16a/	.	.	.	.	.	.	.	.	.	.	.	.	.	.	.	.	.
.	.	4g/	.	.	16aa\	16a/	.	.	.	.	.	.	.	.	.	.	.	.	.	.	.	.	.
.	.	.	.	.	16aa\JJ	16a/JJ	.	.	.	.	.	.	.	.	.	.	.	.	.	.	.	.	.
(4A\	.	.	.	.	16aa\LL	16a/LL	.	.	.	.	.	.	.	.	.	.	2r	.	.	.	.	.	.
!	!	!	!	!	!	!	!	!	!	!	!	!	!	!	!	!	!LO:LB:g=original	!	!	!	!	!	!
.	.	.	.	.	16aa\	16a/	.	.	.	.	.	.	.	.	.	.	.	.	.	.	.	.	.
.	.	4g/	.	.	16aa\	16a/	.	.	.	.	.	.	.	.	.	.	.	.	.	.	.	.	.
.	.	.	.	.	16aa\	16a/	.	.	.	.	.	.	.	.	.	.	.	.	.	.	.	.	.
4c#\)	.	.	.	.	16aa\	16a/	.	.	.	.	.	.	.	.	.	.	.	.	.	.	.	.	.
.	.	.	.	.	16aa\	16a/	.	.	.	.	.	.	.	.	.	.	.	.	.	.	.	.	.
.	.	8g/	.	.	16aa\	16a/	.	.	.	.	.	.	.	.	.	.	.	.	.	.	.	.	.
.	.	.	.	.	16aa\JJ	16a/JJ	.	.	.	.	.	.	.	.	.	.	.	.	.	.	.	.	.
*	*	*v	*v	*	*	*	*	*	*	*	*	*	*	*	*	*	*	*	*	*	*	*	*
=7	=7	=7	=7	=7	=7	=7	=7	=7	=7	=7	=7	=7	=7	=7	=7	=7	=7	=7	=7	=7	=7	=7
4D\|	.	4A/ 4f#	.	16aa\LL	16a/LL	.	1r	.	.	1r	.	.	1r	.	.	4D\	1d	.	1f#	.	1ryy	1ryy
.	.	.	.	16aa\	16a/	.	.	.	.	.	.	.	.	.	.	.	.	.	.	.	.	.
.	.	.	.	16aa\	16a/	.	.	.	.	.	.	.	.	.	.	.	.	.	.	.	.	.
.	.	.	.	16aa\	16a/	.	.	.	.	.	.	.	.	.	.	.	.	.	.	.	.	.
4F#\|	.	4r	.	16aa\	16a/	.	.	.	.	.	.	.	.	.	.	4r	.	.	.	.	.	.
.	.	.	.	16aa\	16a/	.	.	.	.	.	.	.	.	.	.	.	.	.	.	.	.	.
.	.	.	.	16aa\	16a/	.	.	.	.	.	.	.	.	.	.	.	.	.	.	.	.	.
.	.	.	.	16aa\JJ	16a/JJ	.	.	.	.	.	.	.	.	.	.	.	.	.	.	.	.	.
4A\|	.	4r	.	16aa\LL	16a/LL	.	.	.	.	.	.	.	.	.	.	2r	.	.	.	.	.	.
.	.	.	.	16aa\	16a/	.	.	.	.	.	.	.	.	.	.	.	.	.	.	.	.	.
.	.	.	.	16aa\	16a/	.	.	.	.	.	.	.	.	.	.	.	.	.	.	.	.	.
.	.	.	.	16aa\	16a/	.	.	.	.	.	.	.	.	.	.	.	.	.	.	.	.	.
4d\|	.	4A/ 4f#	.	16aa\	16a/	.	.	.	.	.	.	.	.	.	.	.	.	.	.	.	.	.
.	.	.	.	16aa\	16a/	.	.	.	.	.	.	.	.	.	.	.	.	.	.	.	.	.
.	.	.	.	16aa\	16a/	.	.	.	.	.	.	.	.	.	.	.	.	.	.	.	.	.
.	.	.	.	16aa\JJ	16a/JJ	.	.	.	.	.	.	.	.	.	.	.	.	.	.	.	.	.
=8	=8	=8	=8	=8	=8	=8	=8	=8	=8	=8	=8	=8	=8	=8	=8	=8	=8	=8	=8	=8	=8	=8
*	*	*^	*	*	*	*	*	*	*	*	*	*	*	*	*	*	*	*	*	*	*	*
!LO:LB:g=original	!	!	!	!	!	!	!	!	!	!	!	!	!	!	!	!	!	!	!	!	!	!	!
(4c#\	.	8g/	1A	.	16aa\LL	16a/LL	.	1r	.	.	1r	.	.	1r	.	.	4AA/	1A	.	1e	.	1ryy	1ryy
.	.	.	.	.	16aa\	16a/	.	.	.	.	.	.	.	.	.	.	.	.	.	.	.	.	.
.	.	4g/	.	.	16aa\	16a/	.	.	.	.	.	.	.	.	.	.	.	.	.	.	.	.	.
.	.	.	.	.	16aa\	16a/	.	.	.	.	.	.	.	.	.	.	.	.	.	.	.	.	.
4e\)	.	.	.	.	16aa\	16a/	.	.	.	.	.	.	.	.	.	.	4r	.	.	.	.	.	.
.	.	.	.	.	16aa\	16a/	.	.	.	.	.	.	.	.	.	.	.	.	.	.	.	.	.
.	.	4g/	.	.	16aa\	16a/	.	.	.	.	.	.	.	.	.	.	.	.	.	.	.	.	.
.	.	.	.	.	16aa\JJ	16a/JJ	.	.	.	.	.	.	.	.	.	.	.	.	.	.	.	.	.
(4A\	.	.	.	.	16aa\LL	16a/LL	.	.	.	.	.	.	.	.	.	.	2r	.	.	.	.	.	.
.	.	.	.	.	16aa\	16a/	.	.	.	.	.	.	.	.	.	.	.	.	.	.	.	.	.
.	.	4g/	.	.	16aa\	16a/	.	.	.	.	.	.	.	.	.	.	.	.	.	.	.	.	.
.	.	.	.	.	16aa\	16a/	.	.	.	.	.	.	.	.	.	.	.	.	.	.	.	.	.
4c#\)	.	.	.	.	16aa\	16a/	.	.	.	.	.	.	.	.	.	.	.	.	.	.	.	.	.
.	.	.	.	.	16aa\	16a/	.	.	.	.	.	.	.	.	.	.	.	.	.	.	.	.	.
.	.	8g/	.	.	16aa\	16a/	.	.	.	.	.	.	.	.	.	.	.	.	.	.	.	.	.
!	!	!LO:LB:g=original	!	!	!	!	!	!	!	!	!	!	!	!	!	!	!	!	!	!	!	!	!
.	.	.	.	.	16aa\JJ	16a/JJ	.	.	.	.	.	.	.	.	.	.	.	.	.	.	.	.	.
*	*	*	*	*	*v	*v	*	*	*	*	*	*	*	*	*	*	*	*	*	*	*	*	*
=9	=9	=9	=9	=9	=9	=9	=9	=9	=9	=9	=9	=9	=9	=9	=9	=9	=9	=9	=9	=9	=9	=9
!	!	!	!	!LO:DY:b:t=for	!	!LO:DY:b:t=for	!	!	!	!	!	!	!	!	!	!	!	!	!	!	!	!
!	!LO:DY:b:t=forti	!	!	!	!	!	!	!	!	!	!	!	!	!	!	!	!	!	!	!	!	!
4d\	f	4f#/	4rc]	f	4aa\	f	1r	.	.	1r	.	.	1r	.	.	4D\	4D/	.	4f#\	.	1ryy	1ryy
*Xtremolo	*	*tremolo	*tremolo	*	*Xtremolo	*	*	*	*	*	*	*	*	*	*	*	*	*	*	*	*	*
8B\L	.	16dd\LL	16d/LL	.	16ddd\LL	.	.	.	.	.	.	.	.	.	.	4r	4r	.	4r	.	.	.
.	.	16dd\	16d/	.	16dd\	.	.	.	.	.	.	.	.	.	.	.	.	.	.	.	.	.
8B\J	.	16dd\	16d/	.	16ddd\	.	.	.	.	.	.	.	.	.	.	.	.	.	.	.	.	.
.	.	16dd\JJ	16d/JJ	.	16dd\JJ	.	.	.	.	.	.	.	.	.	.	.	.	.	.	.	.	.
8A\L	.	16dd\LL	16d/LL	.	16ccc#\LL	.	.	.	.	.	.	.	.	.	.	2r	2r	.	2r	.	.	.
!	!	!	!	!	!	!	!	!	!	!	!	!	!	!	!	!	!LO:LB:g=original	!	!LO:LB:g=original	!	!	!
.	.	16dd\	16d/	.	16dd\	.	.	.	.	.	.	.	.	.	.	.	.	.	.	.	.	.
8A\	.	16dd\	16d/	.	16ccc#\	.	.	.	.	.	.	.	.	.	.	.	.	.	.	.	.	.
.	.	16dd\	16d/	.	16dd\JJ	.	.	.	.	.	.	.	.	.	.	.	.	.	.	.	.	.
8G\	.	16dd\	16d/	.	16bb\LL	.	.	.	.	.	.	.	.	.	.	.	.	.	.	.	.	.
.	.	16dd\	16d/	.	16dd\	.	.	.	.	.	.	.	.	.	.	.	.	.	.	.	.	.
8G\J	.	16dd\	16d/	.	16bb\	.	.	.	.	.	.	.	.	.	.	.	.	.	.	.	.	.
.	.	16dd\JJ	16d/JJ	.	16dd\JJ	.	.	.	.	.	.	.	.	.	.	.	.	.	.	.	.	.
=10	=10	=10	=10	=10	=10	=10	=10	=10	=10	=10	=10	=10	=10	=10	=10	=10	=10	=10	=10	=10	=10	=10
4F#\	.	4d/	2rc]	.	4aa\	.	1r	.	.	1r	.	.	1r	.	.	1r	4D/	.	4d\	.	1ryy	1ryy
8B\L	.	16dd\LL	.	.	16ddd\LL	.	.	.	.	.	.	.	.	.	.	.	4r	.	4r	.	.	.
.	.	16dd\	.	.	16dd\	.	.	.	.	.	.	.	.	.	.	.	.	.	.	.	.	.
8B\J	.	16dd\	.	.	16ddd\	.	.	.	.	.	.	.	.	.	.	.	.	.	.	.	.	.
.	.	16dd\JJ	.	.	16dd\JJ	.	.	.	.	.	.	.	.	.	.	.	.	.	.	.	.	.
8A\L	.	16dd\LL	16d/LL	.	16ccc#\LL	.	.	.	.	.	.	.	.	.	.	.	2r	.	2r	.	.	.
.	.	16dd\	16d/	.	16dd\	.	.	.	.	.	.	.	.	.	.	.	.	.	.	.	.	.
8A\	.	16dd\	16d/	.	16ccc#\	.	.	.	.	.	.	.	.	.	.	.	.	.	.	.	.	.
.	.	16dd\	16d/	.	16dd\JJ	.	.	.	.	.	.	.	.	.	.	.	.	.	.	.	.	.
8G\	.	16dd\	16d/	.	16bb\LL	.	.	.	.	.	.	.	.	.	.	.	.	.	.	.	.	.
.	.	16dd\	16d/	.	16dd\	.	.	.	.	.	.	.	.	.	.	.	.	.	.	.	.	.
8G\J	.	16dd\	16d/	.	16bb\	.	.	.	.	.	.	.	.	.	.	.	.	.	.	.	.	.
.	.	16dd\JJ	16d/JJ	.	16dd\JJ	.	.	.	.	.	.	.	.	.	.	.	.	.	.	.	.	.
!	!	!	!	!	!LO:LB:g=original	!	!	!	!	!	!	!	!	!	!	!	!	!	!	!	!	!
=11	=11	=11	=11	=11	=11	=11	=11	=11	=11	=11	=11	=11	=11	=11	=11	=11	=11	=11	=11	=11	=11	=11
4F#\	.	4d/	2rc]	.	4aa\	.	1r	.	.	1r	.	.	1r	.	.	1r	4D/	.	4d\	.	1ryy	1ryy
8B\L	.	16dd\LL	.	.	16ddd\LL	.	.	.	.	.	.	.	.	.	.	.	4r	.	4r	.	.	.
.	.	16dd\	.	.	16dd\	.	.	.	.	.	.	.	.	.	.	.	.	.	.	.	.	.
8B\J	.	16dd\	.	.	16ddd\	.	.	.	.	.	.	.	.	.	.	.	.	.	.	.	.	.
.	.	16dd\JJ	.	.	16dd\JJ	.	.	.	.	.	.	.	.	.	.	.	.	.	.	.	.	.
8A\L	.	16dd\LL	16d/LL	.	16ccc#\LL	.	.	.	.	.	.	.	.	.	.	.	2r	.	2r	.	.	.
.	.	16dd\	16d/	.	16dd\	.	.	.	.	.	.	.	.	.	.	.	.	.	.	.	.	.
8A\	.	16dd\	16d/	.	16ccc#\	.	.	.	.	.	.	.	.	.	.	.	.	.	.	.	.	.
.	.	16dd\	16d/	.	16dd\JJ	.	.	.	.	.	.	.	.	.	.	.	.	.	.	.	.	.
8F#\	.	16dd\	16d/	.	4aa\	.	.	.	.	.	.	.	.	.	.	.	.	.	.	.	.	.
.	.	16dd\	16d/	.	.	.	.	.	.	.	.	.	.	.	.	.	.	.	.	.	.	.
8F#\J	.	16dd\	16d/	.	.	.	.	.	.	.	.	.	.	.	.	.	.	.	.	.	.	.
!LO:LB:g=original	!	!	!	!	!	!	!	!	!	!	!	!	!	!	!	!	!	!	!	!	!	!
.	.	16dd\JJ	16d/JJ	.	.	.	.	.	.	.	.	.	.	.	.	.	.	.	.	.	.	.
*	*	*v	*v	*	*	*	*	*	*	*	*	*	*	*	*	*	*	*	*	*	*	*
=12	=12	=12	=12	=12	=12	=12	=12	=12	=12	=12	=12	=12	=12	=12	=12	=12	=12	=12	=12	=12	=12
*tremolo	*	*	*	*tremolo	*	*	*	*	*	*	*	*	*	*	*	*	*	*	*	*	*
8G\L	.	16dd#X\LL	.	16bb\LL	.	1r	.	.	1r	.	.	1r	.	.	1r	1r	.	1r	.	1ryy	1ryy
.	.	16dd#X\	.	16bb\	.	.	.	.	.	.	.	.	.	.	.	.	.	.	.	.	.
8G\	.	16dd#X\	.	16bb\	.	.	.	.	.	.	.	.	.	.	.	.	.	.	.	.	.
.	.	16dd#X\JJ	.	16bb\	.	.	.	.	.	.	.	.	.	.	.	.	.	.	.	.	.
8G\	.	16ee\LL	.	16bb\	.	.	.	.	.	.	.	.	.	.	.	.	.	.	.	.	.
.	.	16ee\	.	16bb\	.	.	.	.	.	.	.	.	.	.	.	.	.	.	.	.	.
8G\J	.	16ee\	.	16bb\	.	.	.	.	.	.	.	.	.	.	.	.	.	.	.	.	.
.	.	16ee\JJ	.	16bb\JJ	.	.	.	.	.	.	.	.	.	.	.	.	.	.	.	.	.
8G\L	.	16ff#\LL	.	16bb\LL	.	.	.	.	.	.	.	.	.	.	.	.	.	.	.	.	.
.	.	16ff#\	.	16bb\	.	.	.	.	.	.	.	.	.	.	.	.	.	.	.	.	.
8G\	.	16ff#\	.	16bb\	.	.	.	.	.	.	.	.	.	.	.	.	.	.	.	.	.
.	.	16ff#\JJ	.	16bb\	.	.	.	.	.	.	.	.	.	.	.	.	.	.	.	.	.
8G\	.	16gg\LL	.	16bb\	.	.	.	.	.	.	.	.	.	.	.	.	.	.	.	.	.
.	.	16gg\	.	16bb\	.	.	.	.	.	.	.	.	.	.	.	.	.	.	.	.	.
8G\J	.	16gg\	.	16bb\	.	.	.	.	.	.	.	.	.	.	.	.	.	.	.	.	.
.	.	16gg\JJ	.	16bb\JJ	.	.	.	.	.	.	.	.	.	.	.	.	.	.	.	.	.
=13	=13	=13	=13	=13	=13	=13	=13	=13	=13	=13	=13	=13	=13	=13	=13	=13	=13	=13	=13	=13	=13
8A\L	.	16ff#\LL	.	16aa\LL	.	1r	.	.	1r	.	.	1r	.	.	2AA/	2d\	.	2f#\	.	1ryy	1ryy
.	.	16ff#\	.	16aa\	.	.	.	.	.	.	.	.	.	.	.	.	.	.	.	.	.
8A\	.	16ff#\	.	16aa\	.	.	.	.	.	.	.	.	.	.	.	.	.	.	.	.	.
.	.	16ff#\JJ	.	16aa\JJ	.	.	.	.	.	.	.	.	.	.	.	.	.	.	.	.	.
8A\	.	16ee\LL	.	16gg\LL	.	.	.	.	.	.	.	.	.	.	.	.	.	.	.	.	.
.	.	16ee\	.	16gg\	.	.	.	.	.	.	.	.	.	.	.	.	.	.	.	.	.
8A\J	.	16ee\	.	16gg\	.	.	.	.	.	.	.	.	.	.	.	.	.	.	.	.	.
.	.	16ee\JJ	.	16gg\JJ	.	.	.	.	.	.	.	.	.	.	.	.	.	.	.	.	.
8AA/L	.	16dd\LL	.	16ff#\LL	.	.	.	.	.	.	.	.	.	.	2AA/	2A\	.	2e\	.	.	.
.	.	16dd\	.	16ff#\	.	.	.	.	.	.	.	.	.	.	.	.	.	.	.	.	.
8AA/	.	16dd\	.	16ff#\	.	.	.	.	.	.	.	.	.	.	.	.	.	.	.	.	.
.	.	16dd\JJ	.	16ff#\JJ	.	.	.	.	.	.	.	.	.	.	.	.	.	.	.	.	.
8AA/	.	16cc#\LL	.	16ee\LL	.	.	.	.	.	.	.	.	.	.	.	.	.	.	.	.	.
.	.	16cc#\	.	16ee\	.	.	.	.	.	.	.	.	.	.	.	.	.	.	.	.	.
8AA/J	.	16cc#\	.	16ee\	.	.	.	.	.	.	.	.	.	.	.	.	.	.	.	.	.
.	.	16cc#\JJ	.	16ee\JJ	.	.	.	.	.	.	.	.	.	.	.	.	.	.	.	.	.
=14	=14	=14	=14	=14	=14	=14	=14	=14	=14	=14	=14	=14	=14	=14	=14	=14	=14	=14	=14	=14	=14
*	*	*^	*	*	*	*	*	*	*	*	*	*	*	*	*	*	*	*	*	*	*
!	!LO:DY:b:t=p:	!	!	!LO:DY:b:t=pia	!	!LO:DY:b:t=pia:	!	!	!	!	!	!	!	!	!	!	!	!	!	!	!	!
4D/	p	4f#/	4rcyy	p	4dd\	p	1r	.	.	1r	.	.	1r	.	.	4D\	4F#/	.	4d\	.	1ryy	1ryy
*Xtremolo	*	*	*	*	*Xtremolo	*	*	*	*	*	*	*	*	*	*	*	*	*	*	*	*	*
8B\L	.	16dd\LL	16d/LL	.	16ddd\LL	.	.	.	.	.	.	.	.	.	.	4r	4r	.	4r	.	.	.
.	.	16dd\	16d/	.	16dd\	.	.	.	.	.	.	.	.	.	.	.	.	.	.	.	.	.
8B\J	.	16dd\	16d/	.	16ddd\	.	.	.	.	.	.	.	.	.	.	.	.	.	.	.	.	.
.	.	16dd\JJ	16d/JJ	.	16dd\JJ	.	.	.	.	.	.	.	.	.	.	.	.	.	.	.	.	.
8A\L	.	16dd\LL	16d/LL	.	16ccc#\LL	.	.	.	.	.	.	.	.	.	.	2r	2r	.	2r	.	.	.
.	.	16dd\	16d/	.	16dd\	.	.	.	.	.	.	.	.	.	.	.	.	.	.	.	.	.
8A\	.	16dd\	16d/	.	16ccc#\	.	.	.	.	.	.	.	.	.	.	.	.	.	.	.	.	.
.	.	16dd\	16d/	.	16dd\JJ	.	.	.	.	.	.	.	.	.	.	.	.	.	.	.	.	.
8G\	.	16dd\	16d/	.	16bb\LL	.	.	.	.	.	.	.	.	.	.	.	.	.	.	.	.	.
.	.	16dd\	16d/	.	16dd\	.	.	.	.	.	.	.	.	.	.	.	.	.	.	.	.	.
8G\J	.	16dd\	16d/	.	16bb\	.	.	.	.	.	.	.	.	.	.	.	.	.	.	.	.	.
.	.	16dd\JJ	16d/JJ	.	16dd\JJ	.	.	.	.	.	.	.	.	.	.	.	.	.	.	.	.	.
=15	=15	=15	=15	=15	=15	=15	=15	=15	=15	=15	=15	=15	=15	=15	=15	=15	=15	=15	=15	=15	=15	=15
4F#\	.	4dd\	2rc]	.	4aa\	.	1r	.	.	1r	.	.	1r	.	.	1r	4D/	.	4d\	.	1ryy	1ryy
8B\L	.	16dd\LL	.	.	16ddd\LL	.	.	.	.	.	.	.	.	.	.	.	4r	.	4r	.	.	.
.	.	16dd\	.	.	16dd\	.	.	.	.	.	.	.	.	.	.	.	.	.	.	.	.	.
8B\J	.	16dd\	.	.	16ddd\	.	.	.	.	.	.	.	.	.	.	.	.	.	.	.	.	.
.	.	16dd\JJ	.	.	16dd\JJ	.	.	.	.	.	.	.	.	.	.	.	.	.	.	.	.	.
8A\L	.	16dd\LL	16d/LL	.	16ccc#\LL	.	.	.	.	.	.	.	.	.	.	.	2r	.	2r	.	.	.
.	.	16dd\	16d/	.	16dd\	.	.	.	.	.	.	.	.	.	.	.	.	.	.	.	.	.
8A\	.	16dd\	16d/	.	16ccc#\	.	.	.	.	.	.	.	.	.	.	.	.	.	.	.	.	.
.	.	16dd\	16d/	.	16dd\JJ	.	.	.	.	.	.	.	.	.	.	.	.	.	.	.	.	.
8G\	.	16dd\	16d/	.	16bb\LL	.	.	.	.	.	.	.	.	.	.	.	.	.	.	.	.	.
.	.	16dd\	16d/	.	16dd\	.	.	.	.	.	.	.	.	.	.	.	.	.	.	.	.	.
8G\J	.	16dd\	16d/	.	16bb\	.	.	.	.	.	.	.	.	.	.	.	.	.	.	.	.	.
.	.	16dd\JJ	16d/JJ	.	16dd\JJ	.	.	.	.	.	.	.	.	.	.	.	.	.	.	.	.	.
!	!	!	!	!	!LO:LB:g=original	!	!	!	!	!	!	!	!	!	!	!	!	!	!	!	!	!
=16	=16	=16	=16	=16	=16	=16	=16	=16	=16	=16	=16	=16	=16	=16	=16	=16	=16	=16	=16	=16	=16	=16
4F#\	.	4d/	2rc]	.	4aa\	.	1r	.	.	1r	.	.	1r	.	.	1r	4D/	.	4d\	.	1ryy	1ryy
8B\L	.	16dd\LL	.	.	16ddd\LL	.	.	.	.	.	.	.	.	.	.	.	4r	.	4r	.	.	.
.	.	16dd\	.	.	16dd\	.	.	.	.	.	.	.	.	.	.	.	.	.	.	.	.	.
8B\J	.	16dd\	.	.	16ddd\	.	.	.	.	.	.	.	.	.	.	.	.	.	.	.	.	.
.	.	16dd\JJ	.	.	16dd\JJ	.	.	.	.	.	.	.	.	.	.	.	.	.	.	.	.	.
!	!	!LO:LB:g=original	!	!	!	!	!	!	!	!	!	!	!	!	!	!	!	!	!	!	!	!
8A\L	.	16dd\LL	16d/LL	.	16cccn\LL	.	.	.	.	.	.	.	.	.	.	.	2r	.	2r	.	.	.
.	.	16dd\	16d/	.	16dd\	.	.	.	.	.	.	.	.	.	.	.	.	.	.	.	.	.
8A\	.	16dd\	16d/	.	16ccc\	.	.	.	.	.	.	.	.	.	.	.	.	.	.	.	.	.
.	.	16dd\	16d/	.	16dd\JJ	.	.	.	.	.	.	.	.	.	.	.	.	.	.	.	.	.
8F#\	.	16dd\	16d/	.	16aa\LL	.	.	.	.	.	.	.	.	.	.	.	.	.	.	.	.	.
.	.	16dd\	16d/	.	16dd\	.	.	.	.	.	.	.	.	.	.	.	.	.	.	.	.	.
8F#\J	.	16dd\	16d/	.	16aa\	.	.	.	.	.	.	.	.	.	.	.	.	.	.	.	.	.
.	.	16dd\JJ	16d/JJ	.	16dd\JJ	.	.	.	.	.	.	.	.	.	.	.	.	.	.	.	.	.
*	*	*v	*v	*	*	*	*	*	*	*	*	*	*	*	*	*	*	*	*	*	*	*
=17	=17	=17	=17	=17	=17	=17	=17	=17	=17	=17	=17	=17	=17	=17	=17	=17	=17	=17	=17	=17	=17
*tremolo	*	*	*	*tremolo	*	*	*	*	*	*	*	*	*	*	*	*	*	*	*	*	*
!	!LO:DY:b:t=f:	!	!LO:DY:b:t=fo	!	!	!	!	!	!	!	!	!	!	!	!	!	!	!	!	!	!
8G\L	f	16dd#X\LL	f	16bb\LL	.	1r	.	.	1r	.	.	1r	.	.	1r	1r	.	1r	.	1ryy	1ryy
.	.	16dd#X\	.	16bb\	.	.	.	.	.	.	.	.	.	.	.	.	.	.	.	.	.
8G\	.	16dd#X\	.	16bb\	.	.	.	.	.	.	.	.	.	.	.	.	.	.	.	.	.
.	.	16dd#X\JJ	.	16bb\	.	.	.	.	.	.	.	.	.	.	.	.	.	.	.	.	.
8G\	.	16ee\LL	.	16bb\	.	.	.	.	.	.	.	.	.	.	.	.	.	.	.	.	.
.	.	16ee\	.	16bb\	.	.	.	.	.	.	.	.	.	.	.	.	.	.	.	.	.
8G\J	.	16ee\	.	16bb\	.	.	.	.	.	.	.	.	.	.	.	.	.	.	.	.	.
.	.	16ee\JJ	.	16bb\JJ	.	.	.	.	.	.	.	.	.	.	.	.	.	.	.	.	.
8G\L	.	16ff#\LL	.	16bb\LL	.	.	.	.	.	.	.	.	.	.	.	.	.	.	.	.	.
.	.	16ff#\	.	16bb\	.	.	.	.	.	.	.	.	.	.	.	.	.	.	.	.	.
8G\	.	16ff#\	.	16bb\	.	.	.	.	.	.	.	.	.	.	.	.	.	.	.	.	.
.	.	16ff#\JJ	.	16bb\	.	.	.	.	.	.	.	.	.	.	.	.	.	.	.	.	.
8G\	.	16gg\LL	.	16bb\	.	.	.	.	.	.	.	.	.	.	.	.	.	.	.	.	.
.	.	16gg\	.	16bb\	.	.	.	.	.	.	.	.	.	.	.	.	.	.	.	.	.
8G\J	.	16gg\	.	16bb\	.	.	.	.	.	.	.	.	.	.	.	.	.	.	.	.	.
!LO:LB:g=original	!	!	!	!	!	!	!	!	!	!	!	!	!	!	!	!	!	!	!	!	!
.	.	16gg\JJ	.	16bb\JJ	.	.	.	.	.	.	.	.	.	.	.	.	.	.	.	.	.
=18	=18	=18	=18	=18	=18	=18	=18	=18	=18	=18	=18	=18	=18	=18	=18	=18	=18	=18	=18	=18	=18
8A\L	.	16ff#\LL	.	16aa\LL	.	1r	.	.	1r	.	.	1r	.	.	2AA/	2d\	.	2f#\	.	1ryy	1ryy
.	.	16ff#\	.	16aa\	.	.	.	.	.	.	.	.	.	.	.	.	.	.	.	.	.
8A\	.	16ff#\	.	16aa\	.	.	.	.	.	.	.	.	.	.	.	.	.	.	.	.	.
.	.	16ff#\JJ	.	16aa\JJ	.	.	.	.	.	.	.	.	.	.	.	.	.	.	.	.	.
8A\	.	16ee\LL	.	16gg\LL	.	.	.	.	.	.	.	.	.	.	.	.	.	.	.	.	.
.	.	16ee\	.	16gg\	.	.	.	.	.	.	.	.	.	.	.	.	.	.	.	.	.
8A\J	.	16ee\	.	16gg\	.	.	.	.	.	.	.	.	.	.	.	.	.	.	.	.	.
.	.	16ee\JJ	.	16gg\JJ	.	.	.	.	.	.	.	.	.	.	.	.	.	.	.	.	.
8AA/L	.	16dd\LL	.	16ff#\LL	.	.	.	.	.	.	.	.	.	.	2AA/	2A\	.	2e\	.	.	.
.	.	16dd\	.	16ff#\	.	.	.	.	.	.	.	.	.	.	.	.	.	.	.	.	.
8AA/	.	16dd\	.	16ff#\	.	.	.	.	.	.	.	.	.	.	.	.	.	.	.	.	.
.	.	16dd\JJ	.	16ff#\JJ	.	.	.	.	.	.	.	.	.	.	.	.	.	.	.	.	.
8AA/	.	16cc#\LL	.	16ee\LL	.	.	.	.	.	.	.	.	.	.	.	.	.	.	.	.	.
.	.	16cc#\	.	16ee\	.	.	.	.	.	.	.	.	.	.	.	.	.	.	.	.	.
8AA/J	.	16cc#\	.	16ee\	.	.	.	.	.	.	.	.	.	.	.	.	.	.	.	.	.
.	.	16cc#\JJ	.	16ee\JJ	.	.	.	.	.	.	.	.	.	.	.	.	.	.	.	.	.
=19	=19	=19	=19	=19	=19	=19	=19	=19	=19	=19	=19	=19	=19	=19	=19	=19	=19	=19	=19	=19	=19
8D/L	.	8f#/L 8dd	.	8dd/L	.	1r	.	.	2r	.	.	2r	.	.	8D\L	4D/	.	4d\	.	1ryy	1ryy
16D/L	.	16f#/L 16dd	.	16d/L 16a 16ff#	.	.	.	.	.	.	.	.	.	.	16D\L	.	.	.	.	.	.
16D/JJ	.	16f#/JJ 16dd	.	16d/JJ 16a 16ff#	.	.	.	.	.	.	.	.	.	.	16D\JJ	.	.	.	.	.	.
*Xtremolo	*	*Xtremolo	*	*Xtremolo	*	*	*	*	*	*	*	*	*	*	*	*	*	*	*	*	*
8D/L	.	8f#/L 8dd	.	8d/L 8a 8ff#	.	.	.	.	.	.	.	.	.	.	8D\L	8F#/L	.	8d\L	.	.	.
8D/J	.	8f#/J 8dd	.	8d/J 8a 8ff#	.	.	.	.	.	.	.	.	.	.	16D\L	8A/J	.	8d\J	.	.	.
.	.	.	.	.	.	.	.	.	.	.	.	.	.	.	16D\JJ	.	.	.	.	.	.
4D/	.	4f#/ 4dd	.	4d/ 4a 4ff#	.	.	.	.	4r	.	.	4r	.	.	4D\	4D/	.	4d\	.	.	.
4r	.	4r	.	8r	.	.	.	.	8r	.	.	4a\	Vi-	.	4r	4r	.	4r	.	.	.
!	!	!	!	!	!LO:DY:a:t=p:	!	!	!	!	!	!	!	!	!	!LO:LB:g=original	!	!	!	!	!	!
.	.	.	.	8a\	p	.	.	.	8a\	Vi-	.	.	.	.	.	.	.	.	.	.	.
=20	=20	=20	=20	=20	=20	=20	=20	=20	=20	=20	=20	=20	=20	=20	=20	=20	=20	=20	=20	=20	=20
!	!LO:DY:b:t=p:	!	!LO:DY:b:t=pia	!	!	!	!	!	!	!	!	!	!	!	!	!	!	!	!	!	!
*tremolo	*	*	*	*	*	*	*	*	*	*	*	*	*	*	*	*	*	*	*	*	*
8D\L	p	4f#/	p	4dd\	.	1r	.	.	4f#/	-vat	.	4dd\	-vat	.	1r	1r	.	1r	.	1ryy	1ryy
8D\	.	.	.	.	.	.	.	.	.	.	.	.	.	.	.	.	.	.	.	.	.
*	*	*	*	*Xtremolo	*	*	*	*	*	*	*	*	*	*	*	*	*	*	*	*	*
8D\	.	8f#/L	.	8dd\L	.	.	.	.	4f#/	Pro-	Ma-	4dd\	Pro-	.	.	.	.	.	.	.	.
8D\J	.	8f#/J	.	8dd\J	.	.	.	.	.	.	.	.	.	.	.	.	.	.	.	.	.
8D\L	.	4f#/	.	4dd\	.	.	.	.	4f#/	-vin-	-te-	4dd\	-vin-	.	.	.	.	.	.	.	.
8D\	.	.	.	.	.	.	.	.	.	.	.	.	.	.	.	.	.	.	.	.	.
8D\	.	4f#/	.	4dd\	.	.	.	.	4f#/	-ci-	-us	4dd\	-ci-	.	.	.	.	.	.	.	.
8D\J	.	.	.	.	.	.	.	.	.	.	.	.	.	.	.	.	.	.	.	.	.
=21	=21	=21	=21	=21	=21	=21	=21	=21	=21	=21	=21	=21	=21	=21	=21	=21	=21	=21	=21	=21	=21
8E\L	.	4f#/	.	4dd\	.	1r	.	.	4f#/	-a-	.	(4dd\	-a-	.	1r	1r	.	1r	.	1ryy	1ryy
8E\	.	.	.	.	.	.	.	.	.	.	.	.	.	.	.	.	.	.	.	.	.
8E\	.	4g/	.	4cc#\	.	.	.	.	4g/	.	.	4cc#\)	.	.	.	.	.	.	.	.	.
8E\J	.	.	.	.	.	.	.	.	.	.	.	.	.	.	.	.	.	.	.	.	.
8E\L	.	4g/	.	4cc#\	.	.	.	.	4g/	-lis	.	4cc#\	-lis	.	.	.	.	.	.	.	.
8E\	.	.	.	.	.	.	.	.	.	.	.	.	.	.	.	.	.	.	.	.	.
8E\	.	4r	.	8r	.	.	.	.	4e/	Doc-	Pa-	4a\	Doc-	.	.	.	.	.	.	.	.
8E\J	.	.	.	8a\	.	.	.	.	.	.	.	.	.	.	.	.	.	.	.	.	.
=22	=22	=22	=22	=22	=22	=22	=22	=22	=22	=22	=22	=22	=22	=22	=22	=22	=22	=22	=22	=22	=22
!	!	!	!	!LO:LB:g=original	!	!	!	!	!LO:TX:t=P:problem=2\right&colon; global	!	!	!LO:TX:t=P:problem=2\right&colon; global	!	!	!	!	!	!	!	!	!
8AA/L	.	4e/	.	4gg\	.	1r	.	.	2.a\	-tor	-ter	2gg\	-tor	.	1r	1r	.	1r	.	1ryy	1ryy
8AA/	.	.	.	.	.	.	.	.	.	.	.	.	.	.	.	.	.	.	.	.	.
8AA/	.	8e/L	.	8gg\L	.	.	.	.	.	.	.	.	.	.	.	.	.	.	.	.	.
8AA/J	.	8e/J	.	8gg\J	.	.	.	.	.	.	.	.	.	.	.	.	.	.	.	.	.
8AA/L	.	4e/	.	4gg\	.	.	.	.	.	.	.	4gg\	.	.	.	.	.	.	.	.	.
8AA/	.	.	.	.	.	.	.	.	.	.	.	.	.	.	.	.	.	.	.	.	.
!	!	!	!	!	!	!	!	!	!LO:N:vis=8	!	!	!	!	!	!	!	!	!	!	!	!
8AA/	.	4e/	.	4gg\	.	.	.	.	4g\	Ex-	.	4gg\	ex-	.	.	.	.	.	.	.	.
!	!	!LO:LB:g=original	!	!	!	!	!	!	!	!	!	!	!	!	!	!	!	!	!	!	!
8AA/J	.	.	.	.	.	.	.	.	.	.	.	.	.	.	.	.	.	.	.	.	.
!LO:LB:g=original	!	!	!	!	!	!	!	!	!	!	!	!	!	!	!	!	!	!	!	!	!
=23	=23	=23	=23	=23	=23	=23	=23	=23	=23	=23	=23	=23	=23	=23	=23	=23	=23	=23	=23	=23	=23
8D\L	.	4e/	.	4gg\	.	1r	.	.	8.a\	-i-	.	8.gg\	-i-	.	1r	1r	.	1r	.	1ryy	1ryy
8D\	.	.	.	.	.	.	.	.	.	.	.	.	.	.	.	.	.	.	.	.	.
.	.	.	.	.	.	.	.	.	16a\	-mi-	.	16ff#\	-mi-	.	.	.	.	.	.	.	.
8D\	.	4d/	.	4ff#\	.	.	.	.	4dd\	-us	.	4ff#\	-us	.	.	.	.	.	.	.	.
!	!	!	!	!	!	!	!	!	!	!	!	!LO:LB:g=original	!	!	!	!	!	!	!	!	!
8D\J	.	.	.	.	.	.	.	.	.	.	.	.	.	.	.	.	.	.	.	.	.
8D\L	.	4d/	.	4ff#\	.	.	.	.	4r	.	.	4r	.	.	.	.	.	.	.	.	.
8D\	.	.	.	.	.	.	.	.	.	.	.	.	.	.	.	.	.	.	.	.	.
8D\	.	4r	.	8ff#\L	.	.	.	.	4ryy	.	.	(8ff#\L	Pa-	.	.	.	.	.	.	.	.
!	!	!	!	!	!LO:DY:a	!	!	!	!	!	!	!	!	!	!	!	!	!	!	!	!
!	!	!	!	!	!LO:DY:a:t=for	!	!	!	!	!	!	!	!	!	!	!	!	!	!	!	!
8D\J	.	.	.	8dd\J	f	.	.	.	.	.	.	8dd\J)	.	.	.	.	.	.	.	.	.
=24	=24	=24	=24	=24	=24	=24	=24	=24	=24	=24	=24	=24	=24	=24	=24	=24	=24	=24	=24	=24	=24
*	*	*	*	*^	*	*	*	*	*	*	*	*	*	*	*	*	*	*	*	*	*
*	*	*	*	*tremolo	*	*	*	*	*	*	*	*	*	*	*	*	*	*	*	*	*	*
!	!	!	!LO:DY:a:t=mezo	!	!	!	!	!	!	!	!	!	!	!	!	!	!	!LO:DY:b:t=p:	!	!LO:DY:b:t=p:	!	!
4D\|	.	4A/ 4f#	mf	16aa\LL	16a\LL	.	1r	.	.	1r	.	.	4aa\	-ter	.	1r	1d	p	1f#	p	1ryy	1ryy
!	!	!	!	!	!	!	!	!	!	!	!	!	!	!	!	!	!LO:LB:g=original	!	!	!	!	!
.	.	.	.	16aa\	16a\	.	.	.	.	.	.	.	.	.	.	.	.	.	.	.	.	.
.	.	.	.	16aa\	16a\	.	.	.	.	.	.	.	.	.	.	.	.	.	.	.	.	.
.	.	.	.	16aa\	16a\	.	.	.	.	.	.	.	.	.	.	.	.	.	.	.	.	.
4F#\|	.	4r	.	16aa\	16a\	.	.	.	.	.	.	.	4aa\	di-	.	.	.	.	.	.	.	.
.	.	.	.	16aa\	16a\	.	.	.	.	.	.	.	.	.	.	.	.	.	.	.	.	.
.	.	.	.	16aa\	16a\	.	.	.	.	.	.	.	.	.	.	.	.	.	.	.	.	.
.	.	.	.	16aa\JJ	16a\JJ	.	.	.	.	.	.	.	.	.	.	.	.	.	.	.	.	.
4A\|	.	4r	.	16aa\LL	16a\LL	.	.	.	.	.	.	.	4aa\	-gniſ-	.	.	.	.	.	.	.	.
.	.	.	.	16aa\	16a\	.	.	.	.	.	.	.	.	.	.	.	.	.	.	.	.	.
.	.	.	.	16aa\	16a\	.	.	.	.	.	.	.	.	.	.	.	.	.	.	.	.	.
.	.	.	.	16aa\	16a\	.	.	.	.	.	.	.	.	.	.	.	.	.	.	.	.	.
4d\|	.	4A/ 4f#	.	16aa\	16a\	.	.	.	.	.	.	.	4aa\	-si-	.	.	.	.	.	.	.	.
.	.	.	.	16aa\	16a\	.	.	.	.	.	.	.	.	.	.	.	.	.	.	.	.	.
.	.	.	.	16aa\	16a\	.	.	.	.	.	.	.	.	.	.	.	.	.	.	.	.	.
.	.	.	.	16aa\JJ	16a\JJ	.	.	.	.	.	.	.	.	.	.	.	.	.	.	.	.	.
=25	=25	=25	=25	=25	=25	=25	=25	=25	=25	=25	=25	=25	=25	=25	=25	=25	=25	=25	=25	=25	=25	=25
*	*	*^	*	*	*	*	*	*	*	*	*	*	*	*	*	*	*	*	*	*	*	*
(4c#\	.	8g/	1A	.	16aa\LL	16a\LL	.	1r	.	.	1r	.	.	2aa\	-mus	.	1r	1A	.	1e	.	1ryy	1ryy
.	.	.	.	.	16aa\	16a\	.	.	.	.	.	.	.	.	.	.	.	.	.	.	.	.	.
.	.	4g/	.	.	16aa\	16a\	.	.	.	.	.	.	.	.	.	.	.	.	.	.	.	.	.
.	.	.	.	.	16aa\	16a\	.	.	.	.	.	.	.	.	.	.	.	.	.	.	.	.	.
4e\)	.	.	.	.	16aa\	16a\	.	.	.	.	.	.	.	.	.	.	.	.	.	.	.	.	.
.	.	.	.	.	16aa\	16a\	.	.	.	.	.	.	.	.	.	.	.	.	.	.	.	.	.
.	.	4g/	.	.	16aa\	16a\	.	.	.	.	.	.	.	.	.	.	.	.	.	.	.	.	.
.	.	.	.	.	16aa\JJ	16a\JJ	.	.	.	.	.	.	.	.	.	.	.	.	.	.	.	.	.
(4A\	.	.	.	.	16aa\LL	16a\LL	.	.	.	.	.	.	.	4r	.	.	.	.	.	.	.	.	.
.	.	.	.	.	16aa\	16a\	.	.	.	.	.	.	.	.	.	.	.	.	.	.	.	.	.
.	.	4g/	.	.	16aa\	16a\	.	.	.	.	.	.	.	.	.	.	.	.	.	.	.	.	.
.	.	.	.	.	16aa\	16a\	.	.	.	.	.	.	.	.	.	.	.	.	.	.	.	.	.
4c#\)	.	.	.	.	16aa\	16a\	.	.	.	.	.	.	.	4aa\	Pa-	.	.	.	.	.	.	.	.
.	.	.	.	.	16aa\	16a\	.	.	.	.	.	.	.	.	.	.	.	.	.	.	.	.	.
.	.	8g/	.	.	16aa\	16a\	.	.	.	.	.	.	.	.	.	.	.	.	.	.	.	.	.
.	.	.	.	.	16aa\JJ	16a\JJ	.	.	.	.	.	.	.	.	.	.	.	.	.	.	.	.	.
*	*	*v	*v	*	*	*	*	*	*	*	*	*	*	*	*	*	*	*	*	*	*	*	*
=26	=26	=26	=26	=26	=26	=26	=26	=26	=26	=26	=26	=26	=26	=26	=26	=26	=26	=26	=26	=26	=26	=26
4d\	.	4A/ 4f#	.	16aa\LL	16a\LL	.	1r	.	.	1r	.	.	4aa\	-ter	.	1r	1d	.	1f#	.	1ryy	1ryy
!	!	!	!	!	!	!	!	!	!	!	!	!	!	!	!	!	!	!	!LO:LB:g=original	!	!	!
.	.	.	.	16aa\	16a\	.	.	.	.	.	.	.	.	.	.	.	.	.	.	.	.	.
.	.	.	.	16aa\	16a\	.	.	.	.	.	.	.	.	.	.	.	.	.	.	.	.	.
.	.	.	.	16aa\	16a\	.	.	.	.	.	.	.	.	.	.	.	.	.	.	.	.	.
4D\	.	4r	.	16aa\	16a\	.	.	.	.	.	.	.	4aa\	di-	.	.	.	.	.	.	.	.
.	.	.	.	16aa\	16a\	.	.	.	.	.	.	.	.	.	.	.	.	.	.	.	.	.
.	.	.	.	16aa\	16a\	.	.	.	.	.	.	.	.	.	.	.	.	.	.	.	.	.
.	.	.	.	16aa\JJ	16a\JJ	.	.	.	.	.	.	.	.	.	.	.	.	.	.	.	.	.
4F#\	.	4r	.	16aa\LL	16a\LL	.	.	.	.	.	.	.	4aa\	-gniſ-	.	.	.	.	.	.	.	.
.	.	.	.	16aa\	16a\	.	.	.	.	.	.	.	.	.	.	.	.	.	.	.	.	.
.	.	.	.	16aa\	16a\	.	.	.	.	.	.	.	.	.	.	.	.	.	.	.	.	.
.	.	.	.	16aa\	16a\	.	.	.	.	.	.	.	.	.	.	.	.	.	.	.	.	.
4A\	.	4A/ 4f#	.	16aa\	16a\	.	.	.	.	.	.	.	4aa\	-si-	.	.	.	.	.	.	.	.
.	.	.	.	16aa\	16a\	.	.	.	.	.	.	.	.	.	.	.	.	.	.	.	.	.
.	.	.	.	16aa\	16a\	.	.	.	.	.	.	.	.	.	.	.	.	.	.	.	.	.
.	.	.	.	16aa\JJ	16a\JJ	.	.	.	.	.	.	.	.	.	.	.	.	.	.	.	.	.
=27	=27	=27	=27	=27	=27	=27	=27	=27	=27	=27	=27	=27	=27	=27	=27	=27	=27	=27	=27	=27	=27	=27
*	*	*^	*	*	*	*	*	*	*	*	*	*	*	*	*	*	*	*	*	*	*	*
!	!	!	!	!	!	!	!	!LO:TX:t=P:problem=brak t. 29	!	!	!	!	!	!	!	!	!	!	!	!	!	!	!
(4c#\	.	8g/	1A	.	16aa\LL	16a\LL	.	1ryy	.	.	1r	.	.	4aa\	-mus	.	1r	1A	.	1e	.	1ryy	1ryy
.	.	.	.	.	16aa\	16a\	.	.	.	.	.	.	.	.	.	.	.	.	.	.	.	.	.
.	.	4g/	.	.	16aa\	16a\	.	.	.	.	.	.	.	.	.	.	.	.	.	.	.	.	.
.	.	.	.	.	16aa\	16a\	.	.	.	.	.	.	.	.	.	.	.	.	.	.	.	.	.
4e\)	.	.	.	.	16aa\	16a\	.	.	.	.	.	.	.	4r	.	.	.	.	.	.	.	.	.
.	.	.	.	.	16aa\	16a\	.	.	.	.	.	.	.	.	.	.	.	.	.	.	.	.	.
.	.	4g/	.	.	16aa\	16a\	.	.	.	.	.	.	.	.	.	.	.	.	.	.	.	.	.
.	.	.	.	.	16aa\JJ	16a\JJ	.	.	.	.	.	.	.	.	.	.	.	.	.	.	.	.	.
(4A\	.	.	.	.	16aa\LL	16a\LL	.	.	.	.	.	.	.	2r	.	.	.	.	.	.	.	.	.
.	.	.	.	.	16aa\	16a\	.	.	.	.	.	.	.	.	.	.	.	.	.	.	.	.	.
.	.	4g/	.	.	16aa\	16a\	.	.	.	.	.	.	.	.	.	.	.	.	.	.	.	.	.
.	.	.	.	.	16aa\	16a\	.	.	.	.	.	.	.	.	.	.	.	.	.	.	.	.	.
4c#\)	.	.	.	.	16aa\	16a\	.	.	.	.	.	.	.	.	.	.	.	.	.	.	.	.	.
.	.	.	.	.	16aa\	16a\	.	.	.	.	.	.	.	.	.	.	.	.	.	.	.	.	.
.	.	8g/	.	.	16aa\	16a\	.	.	.	.	.	.	.	.	.	.	.	.	.	.	.	.	.
.	.	.	.	.	16aa\JJ	16a\JJ	.	.	.	.	.	.	.	.	.	.	.	.	.	.	.	.	.
*	*	*v	*v	*	*	*	*	*	*	*	*	*	*	*	*	*	*	*	*	*	*	*	*
*	*	*	*	*v	*v	*	*	*	*	*	*	*	*	*	*	*	*	*	*	*	*	*
=28	=28	=28	=28	=28	=28	=28	=28	=28	=28	=28	=28	=28	=28	=28	=28	=28	=28	=28	=28	=28	=28
!LO:TX:t=P:problem=mixed beam	!	!	!	!	!	!	!	!	!	!	!	!	!	!	!	!	!	!	!	!	!
!	!	!	!LO:DY:a:t=for	!	!	!	!	!	!	!	!	!	!	!	!	!	!LO:DY:b:t=f:	!	!	!	!
8d\L	.	16f#\LL	f	16ff#\LL	.	2D\	fes-	.	2dd\	vi-	.	2ff#\	vi-	.	2D\	1d	f	1f#	.	1ryy	1ryy
.	.	16dd\	.	16ff#\	.	.	.	.	.	.	.	.	.	.	.	.	.	.	.	.	.
8D/	.	16dd\	.	16ff#\	.	.	.	.	.	.	.	.	.	.	.	.	.	.	.	.	.
.	.	16dd\JJ	.	16ff#\	.	.	.	.	.	.	.	.	.	.	.	.	.	.	.	.	.
*	*	*tremolo	*	*	*	*	*	*	*	*	*	*	*	*	*	*	*	*	*	*	*
8D/	.	16dd\LL	.	16ff#\	.	.	.	.	.	.	.	.	.	.	.	.	.	.	.	.	.
.	.	16dd\	.	16ff#\	.	.	.	.	.	.	.	.	.	.	.	.	.	.	.	.	.
8D/J	.	16dd\	.	16ff#\	.	.	.	.	.	.	.	.	.	.	.	.	.	.	.	.	.
.	.	16dd\JJ	.	16ff#\JJ	.	.	.	.	.	.	.	.	.	.	.	.	.	.	.	.	.
8D\L	.	16dd\LL	.	16ff#\LL	.	4D\	-ti-	.	4dd\	.	.	4ff#\	-vat	.	2r	.	.	.	.	.	.
.	.	16dd\	.	16ff#\	.	.	.	.	.	.	.	.	.	.	.	.	.	.	.	.	.
8D\	.	16dd\	.	16ff#\	.	.	.	.	.	.	.	.	.	.	.	.	.	.	.	.	.
.	.	16dd\	.	16ff#\	.	.	.	.	.	.	.	.	.	.	.	.	.	.	.	.	.
8D\	.	16dd\	.	16ff#\	.	4D\	-vos	.	4dd\	-vat	.	4ff#\	.	.	.	.	.	.	.	.	.
.	.	16dd\	.	16ff#\	.	.	.	.	.	.	.	.	.	.	.	.	.	.	.	.	.
8D\J	.	16dd\	.	16ff#\	.	.	.	.	.	.	.	.	.	.	.	.	.	.	.	.	.
.	.	16dd\JJ	.	16ff#\JJ	.	.	.	.	.	.	.	.	.	.	.	.	.	.	.	.	.
=29	=29	=29	=29	=29	=29	=29	=29	=29	=29	=29	=29	=29	=29	=29	=29	=29	=29	=29	=29	=29	=29
8A\L	.	16cc#\LL	.	16ee\LL	.	2A\	ap-	.	4.cc#\	cor-	.	4.ee\	cor-	.	2AA/	1A	.	1e	.	1ryy	1ryy
.	.	16cc#\	.	16ee\	.	.	.	.	.	.	.	.	.	.	.	.	.	.	.	.	.
8A\	.	16cc#\	.	16ee\	.	.	.	.	.	.	.	.	.	.	.	.	.	.	.	.	.
.	.	16cc#\	.	16ee\	.	.	.	.	.	.	.	.	.	.	.	.	.	.	.	.	.
8A\	.	16cc#\	.	16ee\	.	.	.	.	.	.	.	.	.	.	.	.	.	.	.	.	.
.	.	16cc#\	.	16ee\	.	.	.	.	.	.	.	.	.	.	.	.	.	.	.	.	.
8A\J	.	16cc#\	.	16ee\	.	.	.	.	8cc#\	-di-	.	8ee\	-di-	.	.	.	.	.	.	.	.
.	.	16cc#\JJ	.	16ee\JJ	.	.	.	.	.	.	.	.	.	.	.	.	.	.	.	.	.
8A\L	.	16cc#\LL	.	16ee\LL	.	2A\	-pre-	.	4cc#\	-um	.	4ee\	-um	.	2r	.	.	.	.	.	.
.	.	16cc#\	.	16ee\	.	.	.	.	.	.	.	.	.	.	.	.	.	.	.	.	.
8A\	.	16cc#\	.	16ee\	.	.	.	.	.	.	.	.	.	.	.	.	.	.	.	.	.
.	.	16cc#\	.	16ee\	.	.	.	.	.	.	.	.	.	.	.	.	.	.	.	.	.
8A\	.	16cc#\	.	16ee\	.	.	.	.	4cc#\	nos-	.	4ee\	nos-	.	.	.	.	.	.	.	.
!	!	!	!	!	!	!	!	!	!	!	!	!LO:LB:g=original	!	!	!	!	!	!	!	!	!
.	.	16cc#\	.	16ee\	.	.	.	.	.	.	.	.	.	.	.	.	.	.	.	.	.
8A\J	.	16cc#\	.	16ee\	.	.	.	.	.	.	.	.	.	.	.	.	.	.	.	.	.
.	.	16cc#\JJ	.	16ee\JJ	.	.	.	.	.	.	.	.	.	.	.	.	.	.	.	.	.
=30	=30	=30	=30	=30	=30	=30	=30	=30	=30	=30	=30	=30	=30	=30	=30	=30	=30	=30	=30	=30	=30
8E\L	.	16g#X/LL	.	16dd\LL	.	2E\	-ca-	.	2b\	-tro-	.	2dd\	-trum	.	1r	1e	.	1e	.	1ryy	1ryy
.	.	16g#X/	.	16dd\	.	.	.	.	.	.	.	.	.	.	.	.	.	.	.	.	.
8E\	.	16g#X/	.	16dd\	.	.	.	.	.	.	.	.	.	.	.	.	.	.	.	.	.
.	.	16g#X/	.	16dd\	.	.	.	.	.	.	.	.	.	.	.	.	.	.	.	.	.
8E\	.	16g#X/	.	16dd\	.	.	.	.	.	.	.	.	.	.	.	.	.	.	.	.	.
.	.	16g#X/	.	16dd\	.	.	.	.	.	.	.	.	.	.	.	.	.	.	.	.	.
8E\J	.	16g#X/	.	16dd\	.	.	.	.	.	.	.	.	.	.	.	.	.	.	.	.	.
.	.	16g#X/JJ	.	16dd\JJ	.	.	.	.	.	.	.	.	.	.	.	.	.	.	.	.	.
8E\L	.	16g#/LL	.	16dd\LL	.	4E\	-mur	.	4b\	-rum	.	4dd\	.	.	.	.	.	.	.	.	.
.	.	16g#/	.	16dd\	.	.	.	.	.	.	.	.	.	.	.	.	.	.	.	.	.
8E\	.	16g#/	.	16dd\	.	.	.	.	.	.	.	.	.	.	.	.	.	.	.	.	.
.	.	16g#/	.	16dd\	.	.	.	.	.	.	.	.	.	.	.	.	.	.	.	.	.
8E\	.	16g#/	.	16dd\	.	4E\	suc-	.	4b\	prae-	.	4dd\	.	.	.	.	.	.	.	.	.
.	.	16g#/	.	16dd\	.	.	.	.	.	.	.	.	.	.	.	.	.	.	.	.	.
8E\J	.	16g#/	.	16dd\	.	.	.	.	.	.	.	.	.	.	.	.	.	.	.	.	.
!LO:LB:g=original	!	!	!	!	!	!	!	!	!	!	!	!	!	!	!	!	!	!	!	!	!
.	.	16g#/JJ	.	16dd\JJ	.	.	.	.	.	.	.	.	.	.	.	.	.	.	.	.	.
=31	=31	=31	=31	=31	=31	=31	=31	=31	=31	=31	=31	=31	=31	=31	=31	=31	=31	=31	=31	=31	=31
!	!	!LO:LB:g=original	!	!LO:LB:g=original	!	!	!	!	!	!	!	!	!	!	!	!	!	!	!	!	!
8AA/L	.	16a/LL	.	16cc#\LL	.	4AA/	-ceſ-	.	8.a\	-cor-	.	16dd\	cor-	.	2AA/	1A	.	1e	.	1ryy	1ryy
.	.	16a/	.	16cc#\	.	.	.	.	.	.	.	16cc#\	-dÿ	.	.	.	.	.	.	.	.
8AA/	.	16a/	.	16cc#\	.	.	.	.	.	.	.	8cc#\	s	.	.	.	.	.	.	.	.
.	.	16a/	.	16cc#\	.	.	.	.	16a\	-dÿs	.	.	.	.	.	.	.	.	.	.	.
8AA/	.	16a/	.	16cc#\	.	4AA/	-sus	.	4a\	.	.	4ryy	.	.	.	.	.	.	.	.	.
.	.	16a/	.	16cc#\	.	.	.	.	.	.	.	.	.	.	.	.	.	.	.	.	.
8AA/J	.	16a/	.	16cc#\	.	.	.	.	.	.	.	.	.	.	.	.	.	.	.	.	.
.	.	16a/JJ	.	16cc#\JJ	.	.	.	.	.	.	.	.	.	.	.	.	.	.	.	.	.
8AA/L	.	16a/LL	.	16cc#\LL	.	2r	.	.	2r	.	.	2r	.	.	2r	.	.	.	.	.	.
.	.	16a/	.	16cc#\	.	.	.	.	.	.	.	.	.	.	.	.	.	.	.	.	.
8AA/	.	16a/	.	16cc#\	.	.	.	.	.	.	.	.	.	.	.	.	.	.	.	.	.
.	.	16a/	.	16cc#\	.	.	.	.	.	.	.	.	.	.	.	.	.	.	.	.	.
8AA/	.	16a/	.	16cc#\	.	.	.	.	.	.	.	.	.	.	.	.	.	.	.	.	.
.	.	16a/	.	16cc#\	.	.	.	.	.	.	.	.	.	.	.	.	.	.	.	.	.
8AA/J	.	16a/	.	16cc#\	.	.	.	.	.	.	.	.	.	.	.	.	.	.	.	.	.
.	.	16a/JJ	.	16cc#\JJ	.	.	.	.	.	.	.	.	.	.	.	.	.	.	.	.	.
=32	=32	=32	=32	=32	=32	=32	=32	=32	=32	=32	=32	=32	=32	=32	=32	=32	=32	=32	=32	=32	=32
8D\L	.	16dd\LL	.	16ff#\LL	.	2D\	fes-	.	2dd\	fes-	.	2ff#\	fes-	.	2D\	1d	.	1f#	.	1ryy	1ryy
.	.	16dd\	.	16ff#\	.	.	.	.	.	.	.	.	.	.	.	.	.	.	.	.	.
8D\	.	16dd\	.	16ff#\	.	.	.	.	.	.	.	.	.	.	.	.	.	.	.	.	.
.	.	16dd\	.	16ff#\	.	.	.	.	.	.	.	.	.	.	.	.	.	.	.	.	.
8D\	.	16dd\	.	16ff#\	.	.	.	.	.	.	.	.	.	.	.	.	.	.	.	.	.
.	.	16dd\	.	16ff#\	.	.	.	.	.	.	.	.	.	.	.	.	.	.	.	.	.
8D\J	.	16dd\	.	16ff#\	.	.	.	.	.	.	.	.	.	.	.	.	.	.	.	.	.
.	.	16dd\JJ	.	16ff#\JJ	.	.	.	.	.	.	.	.	.	.	.	.	.	.	.	.	.
8D\L	.	16dd\LL	.	16ff#\LL	.	4D\	-ti-	.	4dd\	-ti-	.	4ff#\	-ti-	.	2r	.	.	.	.	.	.
.	.	16dd\	.	16ff#\	.	.	.	.	.	.	.	.	.	.	.	.	.	.	.	.	.
8D\	.	16dd\	.	16ff#\	.	.	.	.	.	.	.	.	.	.	.	.	.	.	.	.	.
.	.	16dd\	.	16ff#\	.	.	.	.	.	.	.	.	.	.	.	.	.	.	.	.	.
8D\	.	16dd\	.	16ff#\	.	4D\	-vos	.	4dd\	-vos	.	4ff#\	-vos	.	.	.	.	.	.	.	.
.	.	16dd\	.	16ff#\	.	.	.	.	.	.	.	.	.	.	.	.	.	.	.	.	.
8D\J	.	16dd\	.	16ff#\	.	.	.	.	.	.	.	.	.	.	.	.	.	.	.	.	.
.	.	16dd\JJ	.	16ff#\JJ	.	.	.	.	.	.	.	.	.	.	.	.	.	.	.	.	.
=33	=33	=33	=33	=33	=33	=33	=33	=33	=33	=33	=33	=33	=33	=33	=33	=33	=33	=33	=33	=33	=33
8A\L	.	16cc#\LL	.	16ee\LL	.	2A\	ap-	.	2cc#\	ap-	.	2ee\	ap-	.	2AA/	1A	.	1e	.	1ryy	1ryy
.	.	16cc#\	.	16ee\	.	.	.	.	.	.	.	.	.	.	.	.	.	.	.	.	.
8A\	.	16cc#\	.	16ee\	.	.	.	.	.	.	.	.	.	.	.	.	.	.	.	.	.
.	.	16cc#\	.	16ee\	.	.	.	.	.	.	.	.	.	.	.	.	.	.	.	.	.
8A\	.	16cc#\	.	16ee\	.	.	.	.	.	.	.	.	.	.	.	.	.	.	.	.	.
.	.	16cc#\	.	16ee\	.	.	.	.	.	.	.	.	.	.	.	.	.	.	.	.	.
8A\J	.	16cc#\	.	16ee\	.	.	.	.	.	.	.	.	.	.	.	.	.	.	.	.	.
.	.	16cc#\JJ	.	16ee\JJ	.	.	.	.	.	.	.	.	.	.	.	.	.	.	.	.	.
8A\L	.	16cc#\LL	.	16ee\LL	.	2A\	-pre-	.	2cc#\	-pre-	.	2ee\	-pre-	.	2r	.	.	.	.	.	.
!	!	!	!	!	!	!LO:LB:g=original	!	!	!	!	!	!	!	!	!	!	!	!	!	!	!
.	.	16cc#\	.	16ee\	.	.	.	.	.	.	.	.	.	.	.	.	.	.	.	.	.
8A\	.	16cc#\	.	16ee\	.	.	.	.	.	.	.	.	.	.	.	.	.	.	.	.	.
.	.	16cc#\	.	16ee\	.	.	.	.	.	.	.	.	.	.	.	.	.	.	.	.	.
8A\	.	16cc#\	.	16ee\	.	.	.	.	.	.	.	.	.	.	.	.	.	.	.	.	.
.	.	16cc#\	.	16ee\	.	.	.	.	.	.	.	.	.	.	.	.	.	.	.	.	.
8A\J	.	16cc#\	.	16ee\	.	.	.	.	.	.	.	.	.	.	.	.	.	.	.	.	.
.	.	16cc#\JJ	.	16ee\JJ	.	.	.	.	.	.	.	.	.	.	.	.	.	.	.	.	.
=34	=34	=34	=34	=34	=34	=34	=34	=34	=34	=34	=34	=34	=34	=34	=34	=34	=34	=34	=34	=34	=34
8E\L	.	16g#X/LL	.	16dd\LL	.	2E\	-ca-	.	2b\	-ca-	.	2dd\	-ca-	.	2E\	1e	.	1e	.	1ryy	1ryy
.	.	16g#X/	.	16dd\	.	.	.	.	.	.	.	.	.	.	.	.	.	.	.	.	.
8E\	.	16g#X/	.	16dd\	.	.	.	.	.	.	.	.	.	.	.	.	.	.	.	.	.
.	.	16g#X/	.	16dd\	.	.	.	.	.	.	.	.	.	.	.	.	.	.	.	.	.
8E\	.	16g#X/	.	16dd\	.	.	.	.	.	.	.	.	.	.	.	.	.	.	.	.	.
.	.	16g#X/	.	16dd\	.	.	.	.	.	.	.	.	.	.	.	.	.	.	.	.	.
8E\J	.	16g#X/	.	16dd\	.	.	.	.	.	.	.	.	.	.	.	.	.	.	.	.	.
.	.	16g#X/JJ	.	16dd\JJ	.	.	.	.	.	.	.	.	.	.	.	.	.	.	.	.	.
8E\L	.	16g#/LL	.	16dd\LL	.	4E\	-mus	.	4b\	-mus	.	4dd\	-mus	.	2r	.	.	.	.	.	.
.	.	16g#/	.	16dd\	.	.	.	.	.	.	.	.	.	.	.	.	.	.	.	.	.
8E\	.	16g#/	.	16dd\	.	.	.	.	.	.	.	.	.	.	.	.	.	.	.	.	.
.	.	16g#/	.	16dd\	.	.	.	.	.	.	.	.	.	.	.	.	.	.	.	.	.
8E\	.	16g#/	.	16dd\	.	4E\	suc-	.	4b\	suc-	.	4dd\	Suc-	.	.	.	.	.	.	.	.
.	.	16g#/	.	16dd\	.	.	.	.	.	.	.	.	.	.	.	.	.	.	.	.	.
8E\J	.	16g#/	.	16dd\	.	.	.	.	.	.	.	.	.	.	.	.	.	.	.	.	.
.	.	16g#/JJ	.	16dd\JJ	.	.	.	.	.	.	.	.	.	.	.	.	.	.	.	.	.
=35	=35	=35	=35	=35	=35	=35	=35	=35	=35	=35	=35	=35	=35	=35	=35	=35	=35	=35	=35	=35	=35
4AA/	.	16a/LL	.	16cc#\LL	.	4AA/	-ceſ-	.	4a\	-ceſ-	.	4cc#\	-ceſ-	.	4AA/	4A/	.	4e\	.	1ryy	1ryy
.	.	16a/	.	16cc#\	.	.	.	.	.	.	.	.	.	.	.	.	.	.	.	.	.
.	.	16a/	.	16cc#\	.	.	.	.	.	.	.	.	.	.	.	.	.	.	.	.	.
.	.	16a/	.	16cc#\	.	.	.	.	.	.	.	.	.	.	.	.	.	.	.	.	.
4A\	.	16a/	.	16cc#\	.	4AA/	-sus	.	4a\	-sus	.	4cc#\	-sus	.	4r	4r	.	4r	.	.	.
.	.	16a/	.	16cc#\	.	.	.	.	.	.	.	.	.	.	.	.	.	.	.	.	.
.	.	16a/	.	16cc#\	.	.	.	.	.	.	.	.	.	.	.	.	.	.	.	.	.
.	.	16a/JJ	.	16cc#\JJ	.	.	.	.	.	.	.	.	.	.	.	.	.	.	.	.	.
!	!	!	!	!LO:TX:a:t=1\n–\n2	!	!	!	!	!	!	!	!	!	!	!	!	!	!	!	!	!
2r	.	2r	.	2r	.	4r	.	.	2e/	fe-	.	2a\	fe-	.	2r	2r	.	2r	.	.	.
!	!	!	!	!	!	!	!	!	!LO:LB:g=original	!	!	!	!	!	!	!	!	!	!	!	!
.	.	.	.	.	.	4c#\	fe-	.	.	.	.	.	.	.	.	.	.	.	.	.	.
=36	=36	=36	=36	=36	=36	=36	=36	=36	=36	=36	=36	=36	=36	=36	=36	=36	=36	=36	=36	=36	=36
!	!	!	!	!LO:TX:a:t=1	!	!	!	!	!	!	!	!	!	!	!	!	!	!	!	!	!
1r	.	1r	.	1r	.	4d\	.	.	4f#/	.	.	4b\	.	.	1r	1r	.	1r	.	1ryy	1ryy
.	.	.	.	.	.	4c#\	.	.	4e/	.	.	4a\	.	.	.	.	.	.	.	.	.
.	.	.	.	.	.	4B\	.	.	4d/	-sti-	.	4g#X\	-sti-	.	.	.	.	.	.	.	.
.	.	.	.	.	.	4A\	-sti-	.	4c#/	-vos	.	4a\	.	.	.	.	.	.	.	.	.
=37	=37	=37	=37	=37	=37	=37	=37	=37	=37	=37	=37	=37	=37	=37	=37	=37	=37	=37	=37	=37	=37
2r	.	2r	.	2r	.	2G#X\	-vos	.	2e/	.	.	2dd\	-vos	.	1r	2r	.	2r	.	1ryy	1ryy
8D\L	.	16dd\LL	.	16ff#\LL	.	4D\	ap-	.	4dd\	ap-	.	4ff#\	ap-	.	.	4d\	.	4f#\	.	.	.
.	.	16dd\	.	16ff#\	.	.	.	.	.	.	.	.	.	.	.	.	.	.	.	.	.
8D\	.	16dd\	.	16ff#\	.	.	.	.	.	.	.	.	.	.	.	.	.	.	.	.	.
.	.	16dd\	.	16ff#\	.	.	.	.	.	.	.	.	.	.	.	.	.	.	.	.	.
8D\	.	16dd\	.	16ff#\	.	4D\	-pre-	.	4dd\	-pre-	.	4ff#\	-re-	.	.	4d\	.	4f#\	.	.	.
!	!	!	!	!	!	!	!	!	!	!	!	!LO:LB:g=original	!	!	!	!	!	!	!	!	!
.	.	16dd\	.	16ff#\	.	.	.	.	.	.	.	.	.	.	.	.	.	.	.	.	.
8D\J	.	16dd\	.	16ff#\	.	.	.	.	.	.	.	.	.	.	.	.	.	.	.	.	.
.	.	16dd\JJ	.	16ff#\JJ	.	.	.	.	.	.	.	.	.	.	.	.	.	.	.	.	.
=38	=38	=38	=38	=38	=38	=38	=38	=38	=38	=38	=38	=38	=38	=38	=38	=38	=38	=38	=38	=38	=38
8E\L	.	16cc#\LL	.	16ee\LL	.	4E\	-ca-	.	4cc#\	-ca-	.	4ee\	-ca-	.	1r	2e\	.	2e\	.	1ryy	1ryy
.	.	16cc#\	.	16ee\	.	.	.	.	.	.	.	.	.	.	.	.	.	.	.	.	.
8E\	.	16cc#\	.	16ee\	.	.	.	.	.	.	.	.	.	.	.	.	.	.	.	.	.
.	.	16cc#\JJ	.	16ee\JJ	.	.	.	.	.	.	.	.	.	.	.	.	.	.	.	.	.
8E\	.	16b\LL	.	16dd\LL	.	4E\	-mur	.	4b\	-mus	.	4dd\	-mus	.	.	.	.	.	.	.	.
.	.	16b\	.	16dd\	.	.	.	.	.	.	.	.	.	.	.	.	.	.	.	.	.
8E\J	.	16b\	.	16dd\	.	.	.	.	.	.	.	.	.	.	.	.	.	.	.	.	.
.	.	16b\JJ	.	16dd\JJ	.	.	.	.	.	.	.	.	.	.	.	.	.	.	.	.	.
8E\L	.	16a\LL	.	16cc#\LL	.	4E\	suc-	.	4a\	Suc-	.	4cc#\	suc-	.	.	4e\	.	4e\	.	.	.
.	.	16a\	.	16cc#\	.	.	.	.	.	.	.	.	.	.	.	.	.	.	.	.	.
8E\	.	16a\	.	16cc#\	.	.	.	.	.	.	.	.	.	.	.	.	.	.	.	.	.
.	.	16a\JJ	.	16cc#\JJ	.	.	.	.	.	.	.	.	.	.	.	.	.	.	.	.	.
8E\	.	16g#X\LL	.	16b\LL	.	4E\	-ceſ-	.	4g#X\	-ceſ-	.	4b\	-ceſ-	.	.	4e\	.	4e\	.	.	.
.	.	16g#X\	.	16b\	.	.	.	.	.	.	.	.	.	.	.	.	.	.	.	.	.
8E\J	.	16g#X\	.	16b\	.	.	.	.	.	.	.	.	.	.	.	.	.	.	.	.	.
.	.	16g#X\JJ	.	16b\JJ	.	.	.	.	.	.	.	.	.	.	.	.	.	.	.	.	.
=39	=39	=39	=39	=39	=39	=39	=39	=39	=39	=39	=39	=39	=39	=39	=39	=39	=39	=39	=39	=39	=39
2AA/	.	2a/	.	2a\	.	2A\	-sus	.	2a\	-sus	.	2a\	-sus	.	1r	2A/	.	2e\	.	1ryy	1ryy
2r	.	2r	.	2r	.	4r	.	.	4e/	fes-	.	4r	.	.	.	2r	.	2r	.	.	.
!LO:LB:g=original	!	!	!	!	!	!	!	!	!	!	!	!	!	!	!	!LO:LB:g=original	!	!	!	!	!
.	.	.	.	.	.	4c#\	fe-	.	4e/	.	.	4a\	fe-	.	.	.	.	.	.	.	.
=40	=40	=40	=40	=40	=40	=40	=40	=40	=40	=40	=40	=40	=40	=40	=40	=40	=40	=40	=40	=40	=40
!	!	!LO:TX:a:t=1	!	!LO:TX:a:t=1	!	!	!	!	!	!	!	!	!	!	!	!	!	!	!	!	!
1r	.	1r	.	1r	.	4d\	.	.	4f#/	.	.	4b\	-sti-	.	1r	1r	.	1r	.	1ryy	1ryy
!	!	!	!	!LO:LB:g=original	!	!	!	!	!	!	!	!	!	!	!	!	!	!LO:LB:g=original	!	!	!
.	.	.	.	.	.	4c#\	.	.	4e/	.	.	4a\	.	.	.	.	.	.	.	.	.
.	.	.	.	.	.	4B\	.	.	4d/	-ti-	.	4g#X\	.	.	.	.	.	.	.	.	.
.	.	.	.	.	.	4A\	-sti-	.	4c#/	.	.	4a\	.	.	.	.	.	.	.	.	.
!	!	!	!	!	!	!LO:LB:g=original	!	!	!	!	!	!	!	!	!	!	!	!	!	!	!
=41	=41	=41	=41	=41	=41	=41	=41	=41	=41	=41	=41	=41	=41	=41	=41	=41	=41	=41	=41	=41	=41
2r	.	2r	.	2r	.	2G#X\	-vos	.	2e/	-vos	.	2dd\	-vos	.	1r	2r	.	2r	.	1ryy	1ryy
8D\L	.	16dd\LL	.	16ff#\LL	.	4D\	ap-	.	4dd\	ap-	.	4ff#\	ap-	.	.	4d\	.	4f#\	.	.	.
.	.	16dd\	.	16ff#\	.	.	.	.	.	.	.	.	.	.	.	.	.	.	.	.	.
8D\	.	16dd\	.	16ff#\	.	.	.	.	.	.	.	.	.	.	.	.	.	.	.	.	.
.	.	16dd\	.	16ff#\	.	.	.	.	.	.	.	.	.	.	.	.	.	.	.	.	.
8D\	.	16dd\	.	16ff#\	.	4D\	-pre-	.	4dd\	-pre-	.	4ff#\	-re-	.	.	4d\	.	4f#\	.	.	.
.	.	16dd\	.	16ff#\	.	.	.	.	.	.	.	.	.	.	.	.	.	.	.	.	.
8D\J	.	16dd\	.	16ff#\	.	.	.	.	.	.	.	.	.	.	.	.	.	.	.	.	.
.	.	16dd\JJ	.	16ff#\JJ	.	.	.	.	.	.	.	.	.	.	.	.	.	.	.	.	.
=42	=42	=42	=42	=42	=42	=42	=42	=42	=42	=42	=42	=42	=42	=42	=42	=42	=42	=42	=42	=42	=42
!	!	!LO:LB:g=original	!	!	!	!	!	!	!	!	!	!	!	!	!	!	!	!	!	!	!
8E\L	.	16cc#\LL	.	16ee\LL	.	4E\	-ca-	.	4cc#\	-ca-	.	4ee\	-ca-	.	1r	2e\	.	2e\	.	1ryy	1ryy
.	.	16cc#\	.	16ee\	.	.	.	.	.	.	.	.	.	.	.	.	.	.	.	.	.
8E\	.	16cc#\	.	16ee\	.	.	.	.	.	.	.	.	.	.	.	.	.	.	.	.	.
.	.	16cc#\JJ	.	16ee\JJ	.	.	.	.	.	.	.	.	.	.	.	.	.	.	.	.	.
8E\	.	16b\LL	.	16dd\LL	.	4E\	-mus	.	4b\	-mur	.	4dd\	-mus	.	.	.	.	.	.	.	.
.	.	16b\	.	16dd\	.	.	.	.	.	.	.	.	.	.	.	.	.	.	.	.	.
8E\J	.	16b\	.	16dd\	.	.	.	.	.	.	.	.	.	.	.	.	.	.	.	.	.
.	.	16b\JJ	.	16dd\JJ	.	.	.	.	.	.	.	.	.	.	.	.	.	.	.	.	.
8E\L	.	16a\LL	.	16cc#\LL	.	4E\	suc-	.	4a\	Suc-	.	4cc#\	Suc-	.	.	4e\	.	4e\	.	.	.
.	.	16a\	.	16cc#\	.	.	.	.	.	.	.	.	.	.	.	.	.	.	.	.	.
8E\	.	16a\	.	16cc#\	.	.	.	.	.	.	.	.	.	.	.	.	.	.	.	.	.
.	.	16a\JJ	.	16cc#\JJ	.	.	.	.	.	.	.	.	.	.	.	.	.	.	.	.	.
8E\	.	16g#X\LL	.	16b\LL	.	4E\	-ceſ-	.	4g#X\	-ceſ-	.	4b\	-ceſ-	.	.	4e\	.	4e\	.	.	.
.	.	16g#X\	.	16b\	.	.	.	.	.	.	.	.	.	.	.	.	.	.	.	.	.
8E\J	.	16g#X\	.	16b\	.	.	.	.	.	.	.	.	.	.	.	.	.	.	.	.	.
.	.	16g#X\JJ	.	16b\JJ	.	.	.	.	.	.	.	.	.	.	.	.	.	.	.	.	.
=43	=43	=43	=43	=43	=43	=43	=43	=43	=43	=43	=43	=43	=43	=43	=43	=43	=43	=43	=43	=43	=43
2AA/	.	8a\L	.	8cc#\L	.	2AA/	-sus	.	4a\	-sus	.	2a\	-sus	.	1r	2A/	.	2e\	.	1ryy	1ryy
.	.	8cc#\J	.	8aa\J	.	.	.	.	.	.	.	.	.	.	.	.	.	.	.	.	.
.	.	4cc#\	.	4ee\	.	.	.	.	4r	.	.	.	.	.	.	.	.	.	.	.	.
4r	.	8cc#/L	.	8ee\L	.	2r	.	.	2r	.	.	2r	.	.	.	4r	.	4r	.	.	.
!	!	!	!	!	!	!	!	!	!LO:LB:g=original	!	!	!	!	!	!	!	!	!	!	!	!
.	.	8a/	.	8cc#\	.	.	.	.	.	.	.	.	.	.	.	.	.	.	.	.	.
4E\	.	8b/	.	8dd\	.	.	.	.	.	.	.	.	.	.	.	4e\	.	4e\	.	.	.
.	.	8g#X/J	.	8b\J	.	.	.	.	.	.	.	.	.	.	.	.	.	.	.	.	.
=44	=44	=44	=44	=44	=44	=44	=44	=44	=44	=44	=44	=44	=44	=44	=44	=44	=44	=44	=44	=44	=44
2A\	.	8a/L	.	8cc#\L	.	1r	.	.	1r	.	.	1r	.	.	4AA/	2A/	.	2e\	.	1ryy	1ryy
.	.	8cc#/J	.	8aa\J	.	.	.	.	.	.	.	.	.	.	.	.	.	.	.	.	.
.	.	4cc#\	.	4ee\	.	.	.	.	.	.	.	.	.	.	4r	.	.	.	.	.	.
!	!	!LO:TX:t=P:problem=mixed beam	!	!	!	!	!	!	!	!	!	!	!	!	!	!	!	!	!	!	!
4r	.	8cc#\L	.	8cc#\L	.	.	.	.	.	.	.	.	.	.	2r	4r	.	4r	.	.	.
.	.	8c#/	.	8a\	.	.	.	.	.	.	.	.	.	.	.	.	.	.	.	.	.
4E\	.	8d/	.	8b\	.	.	.	.	.	.	.	.	.	.	.	4e\	.	4e\	.	.	.
.	.	8B/J	.	8g#X\J	.	.	.	.	.	.	.	.	.	.	.	.	.	.	.	.	.
=45	=45	=45	=45	=45	=45	=45	=45	=45	=45	=45	=45	=45	=45	=45	=45	=45	=45	=45	=45	=45	=45
!	!	!LO:TX:t=P:problem=mixed beam	!	!LO:TX:t=P:problem=mixed beam	!	!	!	!	!	!	!	!	!	!	!	!	!	!	!	!	!
2AA/	.	8c#/L	.	8a/L	.	1r	.	.	1r	.	.	1r	.	.	4AA/	2A/	.	2e\	.	1ryy	1ryy
.	.	8cc#\J	.	8aa\J	.	.	.	.	.	.	.	.	.	.	.	.	.	.	.	.	.
.	.	4cc#\	.	4ee\	.	.	.	.	.	.	.	.	.	.	4r	.	.	.	.	.	.
4r	.	8cc#/L	.	8ee\L	.	.	.	.	.	.	.	.	.	.	2r	4r	.	4r	.	.	.
!	!	!	!	!	!	!	!	!	!	!	!	!	!	!	!LO:LB:g=original	!	!	!	!	!	!
.	.	8a/	.	8cc#\	.	.	.	.	.	.	.	.	.	.	.	.	.	.	.	.	.
4E\	.	8b/	.	8dd\	.	.	.	.	.	.	.	.	.	.	.	4e\	.	4e\	.	.	.
.	.	8g#X/J	.	8b\J	.	.	.	.	.	.	.	.	.	.	.	.	.	.	.	.	.
=46	=46	=46	=46	=46	=46	=46	=46	=46	=46	=46	=46	=46	=46	=46	=46	=46	=46	=46	=46	=46	=46
!	!	!	!	!	!	!	!	!	!	!	!	!	!	!	!	!LO:TX:t=P:problem=brak t. 47	!	!	!	!	!
2A\	.	8a/L	.	8cc#\L	.	1r	.	.	1r	.	.	1r	.	.	4AA/	1ryy	.	2e\	.	1ryy	1ryy
.	.	8cc#/J	.	8aa\J	.	.	.	.	.	.	.	.	.	.	.	.	.	.	.	.	.
.	.	4cc#\	.	4ee\	.	.	.	.	.	.	.	.	.	.	4r	.	.	.	.	.	.
!	!	!LO:TX:t=P:problem=mixed beam	!	!	!	!	!	!	!	!	!	!	!	!	!	!	!	!	!	!	!
4r	.	8cc#\L	.	8cc#\L	.	.	.	.	.	.	.	.	.	.	2r	.	.	4r	.	.	.
.	.	8c#/	.	8a\	.	.	.	.	.	.	.	.	.	.	.	.	.	.	.	.	.
4E\	.	8d/	.	8b\	.	.	.	.	.	.	.	.	.	.	.	.	.	4e\	.	.	.
.	.	8B/J	.	8g#X\J	.	.	.	.	.	.	.	.	.	.	.	.	.	.	.	.	.
=47	=47	=47	=47	=47	=47	=47	=47	=47	=47	=47	=47	=47	=47	=47	=47	=47	=47	=47	=47	=47	=47
4A\	.	8a\L	.	8aa\L	.	1r	.	.	1r	.	.	1r	.	.	4AA/	4A/	.	4e\	.	1ryy	1ryy
.	.	16cc#\L	.	16ee\L	.	.	.	.	.	.	.	.	.	.	.	.	.	.	.	.	.
.	.	16cc#\JJ	.	16ee\JJ	.	.	.	.	.	.	.	.	.	.	.	.	.	.	.	.	.
!	!	!	!	!LO:LB:g=original	!	!	!	!	!	!	!	!	!	!	!	!	!	!	!	!	!
4AA/	.	8cc#\L	.	8ee\L	.	.	.	.	.	.	.	.	.	.	4AA/	4A/	.	4e\	.	.	.
!LO:LB:g=original	!	!	!	!	!	!	!	!	!	!	!	!	!	!	!	!	!	!	!	!	!
.	.	16a\L	.	16cc#\L	.	.	.	.	.	.	.	.	.	.	.	.	.	.	.	.	.
.	.	16a\JJ	.	16cc#\JJ	.	.	.	.	.	.	.	.	.	.	.	.	.	.	.	.	.
!	!	!LO:LB:g=original	!	!	!	!	!	!	!	!	!	!	!	!	!	!	!	!	!	!	!
4AA/	.	8a/L	.	8cc#\L	.	.	.	.	.	.	.	.	.	.	4AA/	4A/	.	4e\	.	.	.
.	.	16c#/L	.	16a\L	.	.	.	.	.	.	.	.	.	.	.	.	.	.	.	.	.
.	.	16c#/JJ	.	16a\JJ	.	.	.	.	.	.	.	.	.	.	.	.	.	.	.	.	.
4AA/	.	8c#/L	.	8a/L	.	.	.	.	.	.	.	.	.	.	4AA/	4A/	.	4e\	.	.	.
.	.	16c#/L	.	16e/L	.	.	.	.	.	.	.	.	.	.	.	.	.	.	.	.	.
.	.	16c#/JJ	.	16e/JJ	.	.	.	.	.	.	.	.	.	.	.	.	.	.	.	.	.
=48	=48	=48	=48	=48	=48	=48	=48	=48	=48	=48	=48	=48	=48	=48	=48	=48	=48	=48	=48	=48	=48
*	*	*	*	*	*	*	*	*	*	*	*	*	*	*	*	*tremolo	*	*	*	*	*
*	*	*Xtremolo	*	*	*	*	*	*	*	*	*	*	*	*	*	*	*	*tremolo	*	*	*
!	!	!	!	!LO:TX:t=P:problem=mixed beam	!	!	!	!	!	!	!	!	!	!	!	!	!	!	!	!	!
8AA/L	.	8A/L 8e 8cc#	.	8c#/L	.	1r	.	.	1r	.	.	2r	.	.	4AA/	8A/L	.	8e\L	.	1ryy	1ryy
8AA/	.	8A/ 8e 8cc#	.	8cc#\ 8aa	.	.	.	.	.	.	.	.	.	.	.	8A/	.	8e\	.	.	.
8AA/	.	8A/ 8e 8cc#	.	8cc#\ 8aa	.	.	.	.	.	.	.	.	.	.	4AA/	8A/	.	8e\	.	.	.
8AA/J	.	8A/J 8e 8cc#	.	8cc#\J 8aa	.	.	.	.	.	.	.	.	.	.	.	8A/J	.	8e\J	.	.	.
*	*	*	*	*	*	*	*	*	*	*	*	*	*	*	*	*	*	*Xtremolo	*	*	*
*	*	*	*	*	*	*	*	*	*	*	*	*	*	*	*	*Xtremolo	*	*	*	*	*
4AA/	.	4A/ 4e 4cc#	.	4cc#\ 4aa	.	.	.	.	.	.	.	4r	.	.	4AA/	4A/	.	4e\	.	.	.
4r	.	4r	.	8r	.	.	.	.	.	.	.	8a\	ex-	.	4r	4r	.	4r	.	.	.
!	!	!	!	!	!LO:DY:a	!	!	!	!	!	!	!	!	!	!	!	!	!	!	!	!
!	!	!	!	!	!LO:DY:a:t=p:	!	!	!	!	!	!	!	!	!	!	!	!	!	!	!	!
.	.	.	.	8ccn\	p	.	.	.	.	.	.	8ccn\	-op-	.	.	.	.	.	.	.	.
!	!	!	!	!	!	!	!	!	!	!	!	!LO:LB:g=original	!	!	!	!	!	!	!	!	!
=49	=49	=49	=49	=49	=49	=49	=49	=49	=49	=49	=49	=49	=49	=49	=49	=49	=49	=49	=49	=49	=49
*	*	*^	*	*	*	*	*	*	*	*	*	*	*	*	*	*	*	*	*	*	*
!	!LO:DY:b:t=mez.	!	!	!LO:DY:b:t=p:	!	!	!	!	!	!	!	!	!	!	!	!	!	!	!	!	!	!
(4D#X\	mf	8a/	8f#\	p	4b\	.	1r	.	.	1r	.	.	4b\	-ta-	.	1r	1r	.	1r	.	1ryy	1ryy
.	.	4a/	4f#\	.	.	.	.	.	.	.	.	.	.	.	.	.	.	.	.	.	.	.
4F#\)	.	.	.	.	2b\	.	.	.	.	.	.	.	4b\	-mus	.	.	.	.	.	.	.	.
.	.	4a/	4f#\	.	.	.	.	.	.	.	.	.	.	.	.	.	.	.	.	.	.	.
(4BB\	.	.	.	.	.	.	.	.	.	.	.	.	4b\	su-	.	.	.	.	.	.	.	.
.	.	4a/	4f#\	.	.	.	.	.	.	.	.	.	.	.	.	.	.	.	.	.	.	.
4D#\)	.	.	.	.	4b\	.	.	.	.	.	.	.	4a\	-pre-	.	.	.	.	.	.	.	.
.	.	8a/	8f#\	.	.	.	.	.	.	.	.	.	.	.	.	.	.	.	.	.	.	.
*	*	*v	*v	*	*	*	*	*	*	*	*	*	*	*	*	*	*	*	*	*	*	*
=50	=50	=50	=50	=50	=50	=50	=50	=50	=50	=50	=50	=50	=50	=50	=50	=50	=50	=50	=50	=50	=50
(4E\	.	8g/	.	8b\L	.	1r	.	.	1r	.	.	4g\	-mas	.	1r	1r	.	1r	.	1ryy	1ryy
.	.	4g/	.	8ee\J	.	.	.	.	.	.	.	.	.	.	.	.	.	.	.	.	.
4G\)	.	.	.	4b\	.	.	.	.	.	.	.	4r	.	.	.	.	.	.	.	.	.
.	.	4g/	.	.	.	.	.	.	.	.	.	.	.	.	.	.	.	.	.	.	.
4E\	.	.	.	4r	.	.	.	.	.	.	.	4r	.	.	.	.	.	.	.	.	.
.	.	4g/	.	.	.	.	.	.	.	.	.	.	.	.	.	.	.	.	.	.	.
4EE/	.	.	.	8a\L	.	.	.	.	.	.	.	4ccn\	in	.	.	.	.	.	.	.	.
.	.	8g/	.	8ccn\J	.	.	.	.	.	.	.	.	.	.	.	.	.	.	.	.	.
=51	=51	=51	=51	=51	=51	=51	=51	=51	=51	=51	=51	=51	=51	=51	=51	=51	=51	=51	=51	=51	=51
*	*	*^	*	*	*	*	*	*	*	*	*	*	*	*	*	*	*	*	*	*	*
(4D#X\	.	8a/	8f#\	.	4b\	.	1r	.	.	1r	.	.	4b\	or-	.	1r	1r	.	1r	.	1ryy	1ryy
.	.	4a/	4f#\	.	.	.	.	.	.	.	.	.	.	.	.	.	.	.	.	.	.	.
4F#\)	.	.	.	.	2b\	.	.	.	.	.	.	.	8b\	-di-	.	.	.	.	.	.	.	.
.	.	4a/	4f#\	.	.	.	.	.	.	.	.	.	8b\	-ne	.	.	.	.	.	.	.	.
(4BB/	.	.	.	.	.	.	.	.	.	.	.	.	4b\	si-	.	.	.	.	.	.	.	.
.	.	4a/	4f#\	.	.	.	.	.	.	.	.	.	.	.	.	.	.	.	.	.	.	.
4D#/)	.	.	.	.	4b\	.	.	.	.	.	.	.	4a\	-gni-	.	.	.	.	.	.	.	.
.	.	8a/	8f#\	.	.	.	.	.	.	.	.	.	.	.	.	.	.	.	.	.	.	.
*	*	*v	*v	*	*	*	*	*	*	*	*	*	*	*	*	*	*	*	*	*	*	*
=52	=52	=52	=52	=52	=52	=52	=52	=52	=52	=52	=52	=52	=52	=52	=52	=52	=52	=52	=52	=52	=52
(4E\	.	8g/	.	8b\L	.	1r	.	.	1r	.	.	8g\	-ta-	.	1r	1r	.	1r	.	1ryy	1ryy
!	!	!	!	!	!	!	!	!	!	!	!	!	!	!	!	!	!	!LO:LB:g=original	!	!	!
.	.	4g/	.	8ee\J	.	.	.	.	.	.	.	8e\	-tes	.	.	.	.	.	.	.	.
4G\)	.	.	.	4b\	.	.	.	.	.	.	.	4r	.	.	.	.	.	.	.	.	.
.	.	4g/	.	.	.	.	.	.	.	.	.	.	.	.	.	.	.	.	.	.	.
4E\	.	.	.	4r	.	.	.	.	.	.	.	4r	.	.	.	.	.	.	.	.	.
.	.	4g/	.	.	.	.	.	.	.	.	.	.	.	.	.	.	.	.	.	.	.
4Dn\	.	.	.	8g/L	.	.	.	.	.	.	.	8g\	ex-	.	.	.	.	.	.	.	.
.	.	8g/	.	8b/J	.	.	.	.	.	.	.	8b\	-op-	.	.	.	.	.	.	.	.
!	!	!LO:LB:g=original	!	!	!	!	!	!	!	!	!	!	!	!	!	!	!	!	!	!	!
=53	=53	=53	=53	=53	=53	=53	=53	=53	=53	=53	=53	=53	=53	=53	=53	=53	=53	=53	=53	=53	=53
(4C#/	.	8g/	.	4a/	.	1r	.	.	1r	.	.	4a\	-ta-	.	1r	1A	.	1e	.	1ryy	1ryy
.	.	4g/	.	.	.	.	.	.	.	.	.	.	.	.	.	.	.	.	.	.	.
4E/)	.	.	.	2a/	.	.	.	.	.	.	.	4a\	-mus	.	.	.	.	.	.	.	.
.	.	4g/	.	.	.	.	.	.	.	.	.	.	.	.	.	.	.	.	.	.	.
(4AA/	.	.	.	.	.	.	.	.	.	.	.	4.ee\	su-	.	.	.	.	.	.	.	.
.	.	4g/	.	.	.	.	.	.	.	.	.	.	.	.	.	.	.	.	.	.	.
4C#/)	.	.	.	4a/	.	.	.	.	.	.	.	.	.	.	.	.	.	.	.	.	.
!LO:LB:g=original	!	!	!	!LO:LB:g=original	!	!	!	!	!	!	!	!	!	!	!	!	!	!	!	!	!
.	.	8g/	.	.	.	.	.	.	.	.	.	8g\	-pre-	.	.	.	.	.	.	.	.
=54	=54	=54	=54	=54	=54	=54	=54	=54	=54	=54	=54	=54	=54	=54	=54	=54	=54	=54	=54	=54	=54
(4D\	.	8f#/	.	8a/L	.	1r	.	.	1r	.	.	4f#\	-mas	.	1r	4d\	.	4f#\	.	1ryy	1ryy
.	.	4f#/	.	8dd/J	.	.	.	.	.	.	.	.	.	.	.	.	.	.	.	.	.
4F#\)	.	.	.	4a/	.	.	.	.	.	.	.	4r	.	.	.	4r	.	4r	.	.	.
.	.	4f#/	.	.	.	.	.	.	.	.	.	.	.	.	.	.	.	.	.	.	.
4D/	.	.	.	4r	.	.	.	.	.	.	.	4r	.	.	.	2r	.	2r	.	.	.
!	!	!	!	!	!	!	!	!	!	!	!	!	!	!	!	!LO:LB:g=original	!	!	!	!	!
.	.	4f#/	.	.	.	.	.	.	.	.	.	.	.	.	.	.	.	.	.	.	.
!	!	!	!	!	!	!	!	!	!	!	!	!LO:N:vis=8	!	!	!	!	!	!	!	!	!
4DD/	.	.	.	8g/L	.	.	.	.	.	.	.	4b\	in	.	.	.	.	.	.	.	.
!	!	!	!	!	!	!	!	!	!	!	!	!LO:LB:g=original	!	!	!	!	!	!	!	!	!
.	.	8f#/	.	8b/J	.	.	.	.	.	.	.	.	.	.	.	.	.	.	.	.	.
=55	=55	=55	=55	=55	=55	=55	=55	=55	=55	=55	=55	=55	=55	=55	=55	=55	=55	=55	=55	=55	=55
!	!	!	!	!	!	!	!	!	!LO:TX:t=P:problem=brak t. 56	!	!	!	!	!	!	!	!	!	!	!	!
(4C#/	.	8g/	.	4a/	.	1r	.	.	1ryy	.	.	4a\	or-	.	1r	1A	.	1e	.	1ryy	1ryy
.	.	4g/	.	.	.	.	.	.	.	.	.	.	.	.	.	.	.	.	.	.	.
4E/)	.	.	.	2a/	.	.	.	.	.	.	.	8a\	-di-	.	.	.	.	.	.	.	.
.	.	4g/	.	.	.	.	.	.	.	.	.	8a\	-ne	.	.	.	.	.	.	.	.
(4AA/	.	.	.	.	.	.	.	.	.	.	.	4.ee\	Si-	.	.	.	.	.	.	.	.
.	.	8g/	.	.	.	.	.	.	.	.	.	.	.	.	.	.	.	.	.	.	.
4C#/)	.	4g/	.	4a/	.	.	.	.	.	.	.	.	.	.	.	.	.	.	.	.	.
.	.	.	.	.	.	.	.	.	.	.	.	8g\	-gni-	.	.	.	.	.	.	.	.
=56	=56	=56	=56	=56	=56	=56	=56	=56	=56	=56	=56	=56	=56	=56	=56	=56	=56	=56	=56	=56	=56
4D\	.	4f#/	.	8a/L	.	2r	.	.	2r	.	.	4f#/	-ta-	.	1r	4d\	.	4f#\	.	1ryy	1ryy
.	.	.	.	8dd/J	.	.	.	.	.	.	.	.	.	.	.	.	.	.	.	.	.
4F#\	.	4f#/	.	4a/	.	.	.	.	.	.	.	4d/	-tes	.	.	4r	.	4r	.	.	.
4D\	.	2r	.	2r	.	4r	.	.	4r	.	.	4r	.	.	.	2r	.	2r	.	.	.
!	!LO:DY:b:t=fortiſ:	!	!	!	!	!	!	!	!	!	!	!	!	!	!	!	!	!	!	!	!
4r	ff	.	.	.	.	4d\	vi-	.	4dd\	Vi-	.	8dd\	vi-	.	.	.	.	.	.	.	.
.	.	.	.	.	.	.	.	.	.	.	.	8dd\	.	.	.	.	.	.	.	.	.
=57	=57	=57	=57	=57	=57	=57	=57	=57	=57	=57	=57	=57	=57	=57	=57	=57	=57	=57	=57	=57	=57
!	!	!	!LO:DY:a	!	!	!	!	!	!	!	!	!	!	!	!	!	!	!	!	!	!
!	!	!	!LO:DY:b:t=fo	!	!LO:DY:b:t=for	!	!	!	!	!	!	!	!	!	!	!	!	!	!	!	!
*Xtremolo	*	*tremolo	*	*	*	*	*	*	*	*	*	*	*	*	*	*	*	*	*	*	*
8F#\L	.	16d/ 16aLL	f	16dd\ 16cccnLL	f	4F#\	-vat	.	4f#/	-vat	.	4.dd\	-vat	.	4D\	1r	.	1r	.	1ryy	1ryy
.	.	16d/ 16a	.	16dd\ 16cccn	.	.	.	.	.	.	.	.	.	.	.	.	.	.	.	.	.
8d\	.	16d/ 16a	.	16dd\ 16cccn	.	.	.	.	.	.	.	.	.	.	.	.	.	.	.	.	.
.	.	16d/ 16a	.	16dd\ 16cccn	.	.	.	.	.	.	.	.	.	.	.	.	.	.	.	.	.
8F#\	.	16d/ 16a	.	16dd\ 16cccn	.	4A\	Ne-	Ma-	4f#/	Ne-	.	.	.	.	4r	.	.	.	.	.	.
.	.	16d/ 16a	.	16dd\ 16cccn	.	.	.	.	.	.	.	.	.	.	.	.	.	.	.	.	.
8d\J	.	16d/ 16a	.	16dd\ 16cccn	.	.	.	.	.	.	.	16ccn\LL	Ne-	.	.	.	.	.	.	.	.
.	.	16d/ 16aJJ	.	16dd\ 16cccnJJ	.	.	.	.	.	.	.	16b\JJ	.	.	.	.	.	.	.	.	.
8F#\L	.	16d/ 16aLL	.	16dd\ 16cccLL	.	4d\	-po-	-te-	4a/	-po-	Ma-	4a\	-po-	.	2r	.	.	.	.	.	.
.	.	16d/ 16a	.	16dd\ 16ccc	.	.	.	.	.	.	.	.	.	.	.	.	.	.	.	.	.
8d\	.	16d/ 16a	.	16dd\ 16ccc	.	.	.	.	.	.	.	.	.	.	.	.	.	.	.	.	.
.	.	16d/ 16a	.	16dd\ 16ccc	.	.	.	.	.	.	.	.	.	.	.	.	.	.	.	.	.
8F#\	.	16d/ 16a	.	16dd\ 16ccc	.	4F#\	-mu-	-us	4f#/	-mu-	-te-	4dd\	-mu-	.	.	.	.	.	.	.	.
.	.	16d/ 16a	.	16dd\ 16ccc	.	.	.	.	.	.	.	.	.	.	.	.	.	.	.	.	.
8d\J	.	16d/ 16a	.	16dd\ 16ccc	.	.	.	.	.	.	.	.	.	.	.	.	.	.	.	.	.
.	.	16d/ 16aJJ	.	16dd\ 16cccJJ	.	.	.	.	.	.	.	.	.	.	.	.	.	.	.	.	.
=58	=58	=58	=58	=58	=58	=58	=58	=58	=58	=58	=58	=58	=58	=58	=58	=58	=58	=58	=58	=58	=58
8G\L	.	16g/LL	.	16dd\ 16bbLL	.	4G\	-ce-	.	4g\	-ce-	-us	4b\	-ce-	.	1r	1r	.	1r	.	1ryy	1ryy
.	.	16g/	.	16dd\ 16bb	.	.	.	.	.	.	.	.	.	.	.	.	.	.	.	.	.
8d\	.	16g/	.	16dd\ 16bb	.	.	.	.	.	.	.	.	.	.	.	.	.	.	.	.	.
.	.	16g/	.	16dd\ 16bb	.	.	.	.	.	.	.	.	.	.	.	.	.	.	.	.	.
8G\	.	16g/	.	16dd\ 16bb	.	4GG/	-nus	.	4b\	-nus	.	4g\	-mus	.	.	.	.	.	.	.	.
.	.	16g/	.	16dd\ 16bb	.	.	.	.	.	.	.	.	.	.	.	.	.	.	.	.	.
8d\J	.	16g/	.	16dd\ 16bb	.	.	.	.	.	.	.	.	.	.	.	.	.	.	.	.	.
.	.	16g/JJ	.	16dd\ 16bbJJ	.	.	.	.	.	.	.	.	.	.	.	.	.	.	.	.	.
8G\L	.	16g/LL	.	16dd\ 16bbLL	.	4r	.	.	4r	.	.	4r	.	.	.	.	.	.	.	.	.
.	.	16g/	.	16dd\ 16bb	.	.	.	.	.	.	.	.	.	.	.	.	.	.	.	.	.
8d\	.	16g/	.	16dd\ 16bb	.	.	.	.	.	.	.	.	.	.	.	.	.	.	.	.	.
.	.	16g/	.	16dd\ 16bb	.	.	.	.	.	.	.	.	.	.	.	.	.	.	.	.	.
8G\	.	16g/	.	16dd\ 16bb	.	4d\	Ne-	Ma-	4dd\	Ne-	Ma-	4dd\	Ne-	.	.	.	.	.	.	.	.
!	!	!	!	!	!	!LO:LB:g=original	!	!	!	!	!	!	!	!	!	!	!	!	!	!	!
.	.	16g/	.	16dd\ 16bb	.	.	.	.	.	.	.	.	.	.	.	.	.	.	.	.	.
8d\J	.	16g/	.	16dd\ 16bb	.	.	.	.	.	.	.	.	.	.	.	.	.	.	.	.	.
.	.	16g/JJ	.	16dd\ 16bbJJ	.	.	.	.	.	.	.	.	.	.	.	.	.	.	.	.	.
=59	=59	=59	=59	=59	=59	=59	=59	=59	=59	=59	=59	=59	=59	=59	=59	=59	=59	=59	=59	=59	=59
8F#\L	.	16d/ 16aLL	.	16dd\ 16ccc#LL	.	4F#\	-po-	-te-	4f#\	-po-	-te-	4.dd\	-po-	.	1r	1r	.	1r	.	1ryy	1ryy
.	.	16d/ 16a	.	16dd\ 16ccc#	.	.	.	.	.	.	.	.	.	.	.	.	.	.	.	.	.
8d\	.	16d/ 16a	.	16dd\ 16ccc#	.	.	.	.	.	.	.	.	.	.	.	.	.	.	.	.	.
.	.	16d/ 16a	.	16dd\ 16ccc#	.	.	.	.	.	.	.	.	.	.	.	.	.	.	.	.	.
8F#\	.	16d/ 16a	.	16dd\ 16ccc#	.	4A\	-mu-	-us	4f#\	-mu-	.	.	.	.	.	.	.	.	.	.	.
.	.	16d/ 16a	.	16dd\ 16ccc#	.	.	.	.	.	.	.	.	.	.	.	.	.	.	.	.	.
8d\J	.	16d/ 16a	.	16dd\ 16ccc#	.	.	.	.	.	.	.	16ccn\LL	-mu-	.	.	.	.	.	.	.	.
.	.	16d/ 16aJJ	.	16dd\ 16ccc#JJ	.	.	.	.	.	.	.	16b\JJ	.	.	.	.	.	.	.	.	.
8F#\L	.	16d/ 16aLL	.	16dd\ 16ccc#LL	.	4d\	-ce-	Len	4a\	-ce-	-us	4a\	-ce-	.	.	.	.	.	.	.	.
.	.	16d/ 16a	.	16dd\ 16ccc#	.	.	.	.	.	.	.	.	.	.	.	.	.	.	.	.	.
8d\	.	16d/ 16a	.	16dd\ 16ccc#	.	.	.	.	.	.	.	.	.	.	.	.	.	.	.	.	.
.	.	16d/ 16a	.	16dd\ 16ccc#	.	.	.	.	.	.	.	.	.	.	.	.	.	.	.	.	.
8F#\	.	16d/ 16a	.	16dd\ 16ccc#	.	4F#\	-nus	Kars-	4f#\	-nus	len	4dd\	-nus	.	.	.	.	.	.	.	.
.	.	16d/ 16a	.	16dd\ 16ccc#	.	.	.	.	.	.	.	.	.	.	.	.	.	.	.	.	.
8d\J	.	16d/ 16a	.	16dd\ 16ccc#	.	.	.	.	.	.	.	.	.	.	.	.	.	.	.	.	.
.	.	16d/ 16aJJ	.	16dd\ 16ccc#JJ	.	.	.	.	.	.	.	.	.	.	.	.	.	.	.	.	.
=60	=60	=60	=60	=60	=60	=60	=60	=60	=60	=60	=60	=60	=60	=60	=60	=60	=60	=60	=60	=60	=60
!LO:LB:g=original	!	!	!	!LO:TX:a:t=SIC&colon;s=bb	!	!	!	!	!	!	!	!	!	!	!	!	!	!	!	!	!
!	!	!	!	!LO:TX:a:t=h	!	!	!	!	!	!	!	!	!	!	!	!	!	!	!	!	!
8G\L	.	16g/LL	.	16dd\ 16ccc#LL	.	4G\	Vic-	-ky	4g\	Vic-	Kar-	4b\	vic-	.	1r	1r	.	1r	.	1ryy	1ryy
.	.	16g/	.	16dd\ 16ccc#	.	.	.	.	.	.	.	.	.	.	.	.	.	.	.	.	.
8d\	.	16g/	.	16dd\ 16ccc#	.	.	.	.	.	.	.	.	.	.	.	.	.	.	.	.	.
.	.	16g/	.	16dd\ 16ccc#	.	.	.	.	.	.	.	.	.	.	.	.	.	.	.	.	.
8G\	.	16g/	.	16dd\ 16ccc#	.	4GG/	-tor	.	4b\	-tor	-sky	4g\	-tor	.	.	.	.	.	.	.	.
.	.	16g/	.	16dd\ 16ccc#	.	.	.	.	.	.	.	.	.	.	.	.	.	.	.	.	.
8d\J	.	16g/	.	16dd\ 16ccc#	.	.	.	.	.	.	.	.	.	.	.	.	.	.	.	.	.
.	.	16g/JJ	.	16dd\ 16ccc#JJ	.	.	.	.	.	.	.	.	.	.	.	.	.	.	.	.	.
4G\	.	16g/LL	.	16dd\ 16bbLL	.	4r	.	.	4r	.	.	4r	.	.	.	.	.	.	.	.	.
.	.	16g/	.	16dd\ 16bb	.	.	.	.	.	.	.	.	.	.	.	.	.	.	.	.	.
.	.	16g/	.	16dd\ 16bb	.	.	.	.	.	.	.	.	.	.	.	.	.	.	.	.	.
.	.	16g/	.	16dd\ 16bb	.	.	.	.	.	.	.	.	.	.	.	.	.	.	.	.	.
4r	.	16g/	.	16dd\ 16bb	.	4e\	Vi-	vi-	4ee\	vi-	vi-	4ee\	vi-	.	.	.	.	.	.	.	.
!	!	!	!	!	!	!	!	!	!	!	!	!LO:LB:g=original	!	!	!	!	!	!	!	!	!
.	.	16g/	.	16dd\ 16bb	.	.	.	.	.	.	.	.	.	.	.	.	.	.	.	.	.
.	.	16g/	.	16dd\ 16bb	.	.	.	.	.	.	.	.	.	.	.	.	.	.	.	.	.
.	.	16g/JJ	.	16dd\ 16bbJJ	.	.	.	.	.	.	.	.	.	.	.	.	.	.	.	.	.
=61	=61	=61	=61	=61	=61	=61	=61	=61	=61	=61	=61	=61	=61	=61	=61	=61	=61	=61	=61	=61	=61
8G#X\L	.	16e\ 16bLL	.	16ee\ 16dddLL	.	4G#X\	-vat	-vat	4g#X\	-vat	-vat	4.ee\	-vat	.	1r	1r	.	1r	.	1ryy	1ryy
.	.	16e\ 16b	.	16ee\ 16ddd	.	.	.	.	.	.	.	.	.	.	.	.	.	.	.	.	.
8e\	.	16e\ 16b	.	16ee\ 16ddd	.	.	.	.	.	.	.	.	.	.	.	.	.	.	.	.	.
.	.	16e\ 16b	.	16ee\ 16ddd	.	.	.	.	.	.	.	.	.	.	.	.	.	.	.	.	.
8G#\	.	16e\ 16b	.	16ee\ 16ddd	.	4B\	Ne-	Ma-	4g#\	Ne-	.	.	.	.	.	.	.	.	.	.	.
.	.	16e\ 16b	.	16ee\ 16ddd	.	.	.	.	.	.	.	.	.	.	.	.	.	.	.	.	.
8e\J	.	16e\ 16b	.	16ee\ 16ddd	.	.	.	.	.	.	.	16dd\LL	Ne-	.	.	.	.	.	.	.	.
.	.	16e\ 16bJJ	.	16ee\ 16dddJJ	.	.	.	.	.	.	.	16cc#\JJ	.	.	.	.	.	.	.	.	.
!	!	!LO:LB:g=original	!	!	!	!	!	!	!	!	!	!	!	!	!	!	!	!	!	!	!
8G#\L	.	16e\ 16bLL	.	16ee\ 16dddLL	.	4e\	-po-	-te-	4b\	-po-	Ma-	4dd\	-po-	.	.	.	.	.	.	.	.
.	.	16e\ 16b	.	16ee\ 16ddd	.	.	.	.	.	.	.	.	.	.	.	.	.	.	.	.	.
8e\	.	16e\ 16b	.	16ee\ 16ddd	.	.	.	.	.	.	.	.	.	.	.	.	.	.	.	.	.
.	.	16e\ 16b	.	16ee\ 16ddd	.	.	.	.	.	.	.	.	.	.	.	.	.	.	.	.	.
8G#\	.	16e\ 16b	.	16ee\ 16ddd	.	4G#\	-mu-	-us	4g#\	-mu-	.	4ee\	-mu-	.	.	.	.	.	.	.	.
.	.	16e\ 16b	.	16ee\ 16ddd	.	.	.	.	.	.	.	.	.	.	.	.	.	.	.	.	.
8e\J	.	16e\ 16b	.	16ee\ 16ddd	.	.	.	.	.	.	.	.	.	.	.	.	.	.	.	.	.
.	.	16e\ 16bJJ	.	16ee\ 16dddJJ	.	.	.	.	.	.	.	.	.	.	.	.	.	.	.	.	.
=62	=62	=62	=62	=62	=62	=62	=62	=62	=62	=62	=62	=62	=62	=62	=62	=62	=62	=62	=62	=62	=62
8A\L	.	16a\LL	.	16ee\ 16ccc#XLL	.	4A\	-ce-	.	4a\	-ce-	-te-	4cc#\	-ce-	.	1r	1r	.	1r	.	1ryy	1ryy
.	.	16a\	.	16ee\ 16ccc#X	.	.	.	.	.	.	.	.	.	.	.	.	.	.	.	.	.
8e\	.	16a\	.	16ee\ 16ccc#X	.	.	.	.	.	.	.	.	.	.	.	.	.	.	.	.	.
.	.	16a\	.	16ee\ 16ccc#X	.	.	.	.	.	.	.	.	.	.	.	.	.	.	.	.	.
8A\	.	16a\	.	16ee\ 16ccc#X	.	4AA/	-nus	.	4cc#\	-nus	-us	4a\	-mus	.	.	.	.	.	.	.	.
.	.	16a\	.	16ee\ 16ccc#X	.	.	.	.	.	.	.	.	.	.	.	.	.	.	.	.	.
8e\J	.	16a\	.	16ee\ 16ccc#X	.	.	.	.	.	.	.	.	.	.	.	.	.	.	.	.	.
.	.	16a\JJ	.	16ee\ 16ccc#XJJ	.	.	.	.	.	.	.	.	.	.	.	.	.	.	.	.	.
8A\L	.	16a\LL	.	16ee\ 16ccc#LL	.	4r	.	.	4r	.	.	4r	.	.	.	.	.	.	.	.	.
.	.	16a\	.	16ee\ 16ccc#	.	.	.	.	.	.	.	.	.	.	.	.	.	.	.	.	.
8e\	.	16a\	.	16ee\ 16ccc#	.	.	.	.	.	.	.	.	.	.	.	.	.	.	.	.	.
.	.	16a\	.	16ee\ 16ccc#	.	.	.	.	.	.	.	.	.	.	.	.	.	.	.	.	.
8A\	.	16a\	.	16ee\ 16ccc#	.	4e\	Ne-	Ma-	4ee\	Ne-	Ma-	4ee\	Ne-	.	.	.	.	.	.	.	.
!	!	!	!	!	!	!	!	!	!	!LO:LB:g=original	!	!	!	!	!	!	!	!	!	!	!
.	.	16a\	.	16ee\ 16ccc#	.	.	.	.	.	.	.	.	.	.	.	.	.	.	.	.	.
8e\J	.	16a\	.	16ee\ 16ccc#	.	.	.	.	.	.	.	.	.	.	.	.	.	.	.	.	.
.	.	16a\JJ	.	16ee\ 16ccc#JJ	.	.	.	.	.	.	.	.	.	.	.	.	.	.	.	.	.
=63	=63	=63	=63	=63	=63	=63	=63	=63	=63	=63	=63	=63	=63	=63	=63	=63	=63	=63	=63	=63	=63
!	!	!	!	!LO:LB:g=original	!	!	!	!	!	!	!	!	!	!	!	!	!	!	!	!	!
8G#X\L	.	16e\ 16bLL	.	16ee\ 16dddLL	.	4G#X\	-po-	-te-	4g#X\	-po-	-te-	4.ee\	-po-	.	1r	1r	.	1r	.	1ryy	1ryy
.	.	16e\ 16b	.	16ee\ 16ddd	.	.	.	.	.	.	.	.	.	.	.	.	.	.	.	.	.
8e\	.	16e\ 16b	.	16ee\ 16ddd	.	.	.	.	.	.	.	.	.	.	.	.	.	.	.	.	.
.	.	16e\ 16b	.	16ee\ 16ddd	.	.	.	.	.	.	.	.	.	.	.	.	.	.	.	.	.
8G#\	.	16e\ 16b	.	16ee\ 16ddd	.	4B\	-mu-	-us	4g#\	-mu-	.	.	.	.	.	.	.	.	.	.	.
.	.	16e\ 16b	.	16ee\ 16ddd	.	.	.	.	.	.	.	.	.	.	.	.	.	.	.	.	.
8e\J	.	16e\ 16b	.	16ee\ 16ddd	.	.	.	.	.	.	.	16dd\LL	-mu-	Pro-	.	.	.	.	.	.	.
.	.	16e\ 16bJJ	.	16ee\ 16dddJJ	.	.	.	.	.	.	.	16cc#\JJ	.	.	.	.	.	.	.	.	.
8G#\L	.	16e\ 16bLL	.	16ee\ 16dddLL	.	4e\	-ce-	len	4b\	-ce-	-us	4dd\	-ce-	-vin-	.	.	.	.	.	.	.
.	.	16e\ 16b	.	16ee\ 16ddd	.	.	.	.	.	.	.	.	.	.	.	.	.	.	.	.	.
8e\	.	16e\ 16b	.	16ee\ 16ddd	.	.	.	.	.	.	.	.	.	.	.	.	.	.	.	.	.
.	.	16e\ 16b	.	16ee\ 16ddd	.	.	.	.	.	.	.	.	.	.	.	.	.	.	.	.	.
8G#\	.	16e\ 16b	.	16ee\ 16ddd	.	4G#\	-mus	Kars-	4g#\	-nus	len	4ee\	-nus	-ci-	.	.	.	.	.	.	.
.	.	16e\ 16b	.	16ee\ 16ddd	.	.	.	.	.	.	.	.	.	.	.	.	.	.	.	.	.
8e\J	.	16e\ 16b	.	16ee\ 16ddd	.	.	.	.	.	.	.	.	.	.	.	.	.	.	.	.	.
.	.	16e\ 16bJJ	.	16ee\ 16dddJJ	.	.	.	.	.	.	.	.	.	.	.	.	.	.	.	.	.
=64	=64	=64	=64	=64	=64	=64	=64	=64	=64	=64	=64	=64	=64	=64	=64	=64	=64	=64	=64	=64	=64
8A\L	.	16a\LL	.	16ee\ 16ccc#LL	.	4A\	Vic-	-ky	4a\	Vic-	Kar-	4cc#\	vic-	-a-	1r	1r	.	1r	.	1ryy	1ryy
!	!	!	!	!	!	!	!	!	!	!	!	!	!	!	!	!	!	!	!LO:LB:g=original	!	!
.	.	16a\	.	16ee\ 16ccc#	.	.	.	.	.	.	.	.	.	.	.	.	.	.	.	.	.
8e\	.	16a\	.	16ee\ 16ccc#	.	.	.	.	.	.	.	.	.	.	.	.	.	.	.	.	.
.	.	16a\	.	16ee\ 16ccc#	.	.	.	.	.	.	.	.	.	.	.	.	.	.	.	.	.
8A\	.	16a\	.	16ee\ 16ccc#	.	4AA/	-tor	.	4cc#\	-tor	-sky	4a\	-tor	-les	.	.	.	.	.	.	.
.	.	16a\	.	16ee\ 16ccc#	.	.	.	.	.	.	.	.	.	.	.	.	.	.	.	.	.
8e\J	.	16a\	.	16ee\ 16ccc#	.	.	.	.	.	.	.	.	.	.	.	.	.	.	.	.	.
.	.	16a\JJ	.	16ee\ 16ccc#JJ	.	.	.	.	.	.	.	.	.	.	.	.	.	.	.	.	.
4A\	.	4r	.	4r	.	4r	.	.	4r	.	.	4r	.	.	.	.	.	.	.	.	.
*	*	*Xtremolo	*	*	*	*	*	*	*	*	*	*	*	*	*	*	*	*	*	*	*
4A\	.	8a\L	.	4a/	.	4A\	De-	.	4a\	de-	.	4a\	de-	.	.	.	.	.	.	.	.
!	!	!	!	!	!	!LO:LB:g=original	!	!	!	!	!	!	!	!	!	!	!	!	!	!	!
.	.	8a\J	.	.	.	.	.	.	.	.	.	.	.	.	.	.	.	.	.	.	.
=65	=65	=65	=65	=65	=65	=65	=65	=65	=65	=65	=65	=65	=65	=65	=65	=65	=65	=65	=65	=65	=65
!LO:PB:g=original	!	!	!	!	!	!	!	!	!	!	!	!	!	!	!	!	!	!	!	!	!
4c#\|	.	4ee\	.	4gg\|	.	8c#\L	-li-	.	8ee\	-li-	.	8gg\	-li-	.	4AA/	4A\	.	4e\	.	1ryy	1ryy
.	.	.	.	.	.	8c#\J	-ci-	.	8ee\	-ci-	.	8gg\	-ci-	.	.	.	.	.	.	.	.
4d\|	.	4dd\	.	4ee\|	.	4c#\	-um	.	4dd\	-um	.	4ff#\	-um	.	4D\	4d\	.	4f#\	.	.	.
4r	.	4r	.	4r	.	4r	.	.	4r	.	.	4r	.	.	4r	2r	.	2r	.	.	.
4A\|	.	8a\	.	4a/	.	4A\	cor-	.	4a\	cor-	.	4a\	cor-	.	4AA/	.	.	.	.	.	.
.	.	8a\	.	.	.	.	.	.	.	.	.	.	.	.	.	.	.	.	.	.	.
=66	=66	=66	=66	=66	=66	=66	=66	=66	=66	=66	=66	=66	=66	=66	=66	=66	=66	=66	=66	=66	=66
4c#\|	.	4ee\	.	4gg\|	.	8c#\L	-di-	.	8ee\	-di-	.	8gg\	.	.	4AA/	4A\	.	4e\	.	1ryy	1ryy
.	.	.	.	.	.	8c#\J	.	.	8ee\	-um	.	8gg\	-di-	.	.	.	.	.	.	.	.
4d\|	.	4dd\	.	4ff#\|	.	4d\	-um	.	4dd\	.	.	4ff#\	-um	.	4D\	4d\	.	4f#\	.	.	.
4r	.	4r	.	4r	.	4r	.	.	4r	.	.	4r	.	.	4r	2r	.	2r	.	.	.
8d\L	.	8dd\L	.	8dd\L	.	8d\L	cor-	.	8dd\	cor-	.	8dd\	cor-	.	4r	.	.	.	.	.	.
8c#\J	.	8cc#\J	.	8cc#\J	.	8c#\J	-di-	.	8cc#\	-di-	.	8cc#\	-di-	.	.	.	.	.	.	.	.
!	!	!	!	!	!	!	!	!	!	!	!	!LO:LB:g=original	!	!	!	!	!	!	!	!	!
=67	=67	=67	=67	=67	=67	=67	=67	=67	=67	=67	=67	=67	=67	=67	=67	=67	=67	=67	=67	=67	=67
4B\|	.	4b\	.	4b\	.	4B\	-um	.	4b\	-um	.	4b\	-um	.	1r	1r	.	1r	.	1ryy	1ryy
4B-X\|	.	4b-X\	.	4b-X\	.	4B-X\	nos-	.	4b-X\	nos-	.	4b-X\	nos-	.	.	.	.	.	.	.	.
4A\|	.	4a\	.	4a\	.	4A\	-tro-	.	4a\	-tro-	.	4a\	-tro-	.	.	.	.	.	.	.	.
4G#X\|	.	4g#X\	.	4g#X/	.	4G#X\	.	.	4g#X\	.	.	4g#X\	.	.	.	.	.	.	.	.	.
=68	=68	=68	=68	=68	=68	=68	=68	=68	=68	=68	=68	=68	=68	=68	=68	=68	=68	=68	=68	=68	=68
2A;\	.	2a\	.	2a;/	.	2A\	-rum	.	2a\	-rum	.	2a\	-rum	.	1r	1r	.	1r	.	1ryy	1ryy
4r	.	4r	.	4r	.	2r	.	.	4r	.	.	4r;	.	.	.	.	.	.	.	.	.
4r	.	4a\	.	4a/	.	.	.	.	4a\	vi-	.	4a\	vi-	.	.	.	.	.	.	.	.
!	!	!LO:LB:g=original	!	!	!	!	!	!	!LO:LB:g=original	!	!	!	!	!	!	!	!	!	!	!	!
=69	=69	=69	=69	=69	=69	=69	=69	=69	=69	=69	=69	=69	=69	=69	=69	=69	=69	=69	=69	=69	=69
!LO:TX:t=P:p = p:problem	!	!	!	!	!	!LO:TX:a:t=5	!	!	!	!	!	!	!	!	!	!	!	!	!	!	!
!	!	!	!LO:DY:a:t=p:	!	!	!	!	!	!	!	!	!	!	!	!	!	!	!	!	!	!
*tremolo	*	*	*	*	*	*	*	*	*	*	*	*	*	*	*	*	*	*	*	*	*
!	!	!	!	!	!	!	!	!	!	!	!	!	!	!	!	!	!LO:DY:b:t=p:	!	!LO:DY:b:t=p:	!	!
8D\L	p	16f#/LL	p	4dd\	.	1r	.	.	2.f#\	-vat	.	2.dd\	.	.	1r	4F#/	p	1d	p	1ryy	1ryy
.	.	16a/	.	.	.	.	.	.	.	.	.	.	.	.	.	.	.	.	.	.	.
8D\	.	16f#/	.	.	.	.	.	.	.	.	.	.	.	.	.	.	.	.	.	.	.
.	.	16a/JJ	.	.	.	.	.	.	.	.	.	.	.	.	.	.	.	.	.	.	.
*	*	*	*	*Xtremolo	*	*	*	*	*	*	*	*	*	*	*	*	*	*	*	*	*
8D\	.	16f#/LL	.	8dd\L	.	.	.	.	.	.	.	.	.	.	.	8F#/L	.	.	.	.	.
.	.	16a/	.	.	.	.	.	.	.	.	.	.	.	.	.	.	.	.	.	.	.
8D\J	.	16f#/	.	8dd\J	.	.	.	.	.	.	.	.	.	.	.	8F#/J	.	.	.	.	.
.	.	16a/JJ	.	.	.	.	.	.	.	.	.	.	.	.	.	.	.	.	.	.	.
8D\L	.	16f#/LL	.	4dd\	.	.	.	.	.	.	.	.	.	.	.	4F#/	.	.	.	.	.
.	.	16a/	.	.	.	.	.	.	.	.	.	.	.	.	.	.	.	.	.	.	.
8D\	.	16f#/	.	.	.	.	.	.	.	.	.	.	.	.	.	.	.	.	.	.	.
.	.	16a/JJ	.	.	.	.	.	.	.	.	.	.	.	.	.	.	.	.	.	.	.
8D\	.	16f#/LL	.	4dd\	.	.	.	.	4f#\	.	.	4dd\	-vat	.	.	4F#/	.	.	.	.	.
.	.	16a/	.	.	.	.	.	.	.	.	.	.	.	.	.	.	.	.	.	.	.
8D\J	.	16f#/	.	.	.	.	.	.	.	.	.	.	.	.	.	.	.	.	.	.	.
.	.	16a/JJ	.	.	.	.	.	.	.	.	.	.	.	.	.	.	.	.	.	.	.
=70	=70	=70	=70	=70	=70	=70	=70	=70	=70	=70	=70	=70	=70	=70	=70	=70	=70	=70	=70	=70	=70
8E\L	.	16g/LL	.	4dd\	.	1r	.	.	4f#\	Prae-	.	4dd\	Pro-	.	1r	4F#/	.	4d\	.	1ryy	1ryy
.	.	16a/	.	.	.	.	.	.	.	.	.	.	.	.	.	.	.	.	.	.	.
8E\	.	16g/	.	.	.	.	.	.	.	.	.	.	.	.	.	.	.	.	.	.	.
.	.	16a/JJ	.	.	.	.	.	.	.	.	.	.	.	.	.	.	.	.	.	.	.
8E\	.	16g/LL	.	4cc#\	.	.	.	.	4g\	.	.	4cc#\	-ses	.	.	4A/	.	4e\	.	.	.
!	!	!	!	!LO:LB:g=original	!	!	!	!	!	!	!	!	!	!	!	!	!	!	!	!	!
.	.	16a/	.	.	.	.	.	.	.	.	.	.	.	.	.	.	.	.	.	.	.
8E\J	.	16g/	.	.	.	.	.	.	.	.	.	.	.	.	.	.	.	.	.	.	.
.	.	16a/JJ	.	.	.	.	.	.	.	.	.	.	.	.	.	.	.	.	.	.	.
8E\L	.	16g/LL	.	4cc#\	.	.	.	.	4g\	-ses	.	4cc#\	.	.	.	4A/	.	4e\	.	.	.
.	.	16a/	.	.	.	.	.	.	.	.	.	.	.	.	.	.	.	.	.	.	.
8E\	.	16g/	.	.	.	.	.	.	.	.	.	.	.	.	.	.	.	.	.	.	.
.	.	16a/JJ	.	.	.	.	.	.	.	.	.	.	.	.	.	.	.	.	.	.	.
8E\	.	16g/LL	.	8r	.	.	.	.	4a\	ac	.	4a\	ac	.	.	4r	.	4r	.	.	.
.	.	16a/	.	.	.	.	.	.	.	.	.	.	.	.	.	.	.	.	.	.	.
8E\J	.	16g/	.	8a\	.	.	.	.	.	.	.	.	.	.	.	.	.	.	.	.	.
.	.	16a/JJ	.	.	.	.	.	.	.	.	.	.	.	.	.	.	.	.	.	.	.
*Xtremolo	*	*	*	*	*	*	*	*	*	*	*	*	*	*	*	*	*	*	*	*	*
=71	=71	=71	=71	=71	=71	=71	=71	=71	=71	=71	=71	=71	=71	=71	=71	=71	=71	=71	=71	=71	=71
!LO:LB:g=original	!	!	!	!	!	!	!	!	!	!	!	!	!	!	!	!	!	!	!	!	!
8C#/L	.	16e/LL	.	4gg\	.	1r	.	.	(4.a\	Pa-	.	2.gg\	Pa-	.	1r	1A	.	1e	.	1ryy	1ryy
.	.	16a/	.	.	.	.	.	.	.	.	.	.	.	.	.	.	.	.	.	.	.
8AA/	.	16e/	.	.	.	.	.	.	.	.	.	.	.	.	.	.	.	.	.	.	.
.	.	16a/JJ	.	.	.	.	.	.	.	.	.	.	.	.	.	.	.	.	.	.	.
8C#/	.	16e/LL	.	8gg\L	.	.	.	.	.	.	.	.	.	.	.	.	.	.	.	.	.
.	.	16a/	.	.	.	.	.	.	.	.	.	.	.	.	.	.	.	.	.	.	.
8AA/J	.	16e/	.	8gg\J	.	.	.	.	8a\	.	.	.	.	.	.	.	.	.	.	.	.
.	.	16a/JJ	.	.	.	.	.	.	.	.	.	.	.	.	.	.	.	.	.	.	.
8C#/L	.	16e/LL	.	4gg\	.	.	.	.	4a\	.	.	.	.	.	.	.	.	.	.	.	.
.	.	16a/	.	.	.	.	.	.	.	.	.	.	.	.	.	.	.	.	.	.	.
8AA/	.	16e/	.	.	.	.	.	.	.	.	.	.	.	.	.	.	.	.	.	.	.
.	.	16a/JJ	.	.	.	.	.	.	.	.	.	.	.	.	.	.	.	.	.	.	.
8C#/	.	16e/LL	.	4gg\	.	.	.	.	4a\)	-ter	.	4gg\	-ter	.	.	.	.	.	.	.	.
.	.	16a/	.	.	.	.	.	.	.	.	.	.	.	.	.	.	.	.	.	.	.
8AA/J	.	16e/	.	.	.	.	.	.	.	.	.	.	.	.	.	.	.	.	.	.	.
.	.	16a/JJ	.	.	.	.	.	.	.	.	.	.	.	.	.	.	.	.	.	.	.
=72	=72	=72	=72	=72	=72	=72	=72	=72	=72	=72	=72	=72	=72	=72	=72	=72	=72	=72	=72	=72	=72
*tremolo	*	*	*	*	*	*	*	*	*	*	*	*	*	*	*	*	*	*	*	*	*
8D\L	.	16f#/LL	.	4gg\	.	1r	.	.	4ee\	nos-	.	4gg\	nos-	.	1r	4A/	.	4e\	.	1ryy	1ryy
.	.	16a/	.	.	.	.	.	.	.	.	.	.	.	.	.	.	.	.	.	.	.
8D\	.	16f#/	.	.	.	.	.	.	.	.	.	.	.	.	.	.	.	.	.	.	.
.	.	16a/JJ	.	.	.	.	.	.	.	.	.	.	.	.	.	.	.	.	.	.	.
8D\	.	16f#/LL	.	4ff#\	.	.	.	.	4dd\	.	.	4ff#\	.	.	.	4d/	.	4f#\	.	.	.
.	.	16a/	.	.	.	.	.	.	.	.	.	.	.	.	.	.	.	.	.	.	.
8D\J	.	16f#/	.	.	.	.	.	.	.	.	.	.	.	.	.	.	.	.	.	.	.
.	.	16a/JJ	.	.	.	.	.	.	.	.	.	.	.	.	.	.	.	.	.	.	.
8D\L	.	16f#/LL	.	4ff#\	.	.	.	.	4dd\	-ter	.	4ff#\	-ter	.	.	4d/	.	4f#\	.	.	.
.	.	16a/	.	.	.	.	.	.	.	.	.	.	.	.	.	.	.	.	.	.	.
8D\	.	16f#/	.	.	.	.	.	.	.	.	.	.	.	.	.	.	.	.	.	.	.
.	.	16a/JJ	.	.	.	.	.	.	.	.	.	.	.	.	.	.	.	.	.	.	.
!	!	!LO:LB:g=original	!	!	!	!	!	!	!	!	!	!	!	!	!	!	!	!	!	!	!
8D\	.	16f#/LL	.	8ff#\L	.	.	.	.	4r	.	.	8ff#\	vi-	.	.	4r	.	4r	.	.	.
!	!	!	!	!	!	!	!	!	!	!	!	!	!	!	!	!LO:LB:g=original	!	!	!	!	!
.	.	16a/	.	.	.	.	.	.	.	.	.	.	.	.	.	.	.	.	.	.	.
8D\J	.	16f#/	.	8dd\J	.	.	.	.	.	.	.	8aa\	.	.	.	.	.	.	.	.	.
!	!	!	!	!	!	!	!	!	!	!	!	!LO:LB:g=original	!	!	!	!	!	!	!	!	!
.	.	16a/JJ	.	.	.	.	.	.	.	.	.	.	.	.	.	.	.	.	.	.	.
=73	=73	=73	=73	=73	=73	=73	=73	=73	=73	=73	=73	=73	=73	=73	=73	=73	=73	=73	=73	=73	=73
*	*	*	*	*^	*	*	*	*	*	*	*	*	*	*	*	*	*	*	*	*	*
!	!	!	!	!	!	!LO:DY:b:t=for	!	!	!	!	!	!	!	!	!	!	!	!	!	!	!	!
*	*	*	*	*tremolo	*	*	*	*	*	*	*	*	*	*	*	*	*	*	*	*	*	*
!	!LO:DY:b:t=forfis:	!	!LO:DY:b:t=p:	!	!	!	!	!	!	!	!	!	!	!	!	!	!	!	!	!	!	!
4D\	ff	4A/ 4f#	p	16aa\LL	16a/LL	f	1r	.	.	2r	.	.	1ryy	.	.	4D\	4D/	.	1f#	.	1ryy	1ryy
.	.	.	.	16aa\	16a/	.	.	.	.	.	.	.	.	.	.	.	.	.	.	.	.	.
.	.	.	.	16aa\	16a/	.	.	.	.	.	.	.	.	.	.	.	.	.	.	.	.	.
.	.	.	.	16aa\	16a/	.	.	.	.	.	.	.	.	.	.	.	.	.	.	.	.	.
4F#\	.	4r	.	16aa\	16a/	.	.	.	.	.	.	.	.	.	.	4r	4F#/	.	.	.	.	.
.	.	.	.	16aa\	16a/	.	.	.	.	.	.	.	.	.	.	.	.	.	.	.	.	.
.	.	.	.	16aa\	16a/	.	.	.	.	.	.	.	.	.	.	.	.	.	.	.	.	.
.	.	.	.	16aa\JJ	16a/JJ	.	.	.	.	.	.	.	.	.	.	.	.	.	.	.	.	.
4A\	.	4r	.	16aa\LL	16a/LL	.	.	.	.	2a\	vi-	.	.	.	.	2r	4D/	.	.	.	.	.
.	.	.	.	16aa\	16a/	.	.	.	.	.	.	.	.	.	.	.	.	.	.	.	.	.
.	.	.	.	16aa\	16a/	.	.	.	.	.	.	.	.	.	.	.	.	.	.	.	.	.
.	.	.	.	16aa\	16a/	.	.	.	.	.	.	.	.	.	.	.	.	.	.	.	.	.
4D\	.	4A/ 4f#	.	16aa\	16a/	.	.	.	.	.	.	.	.	.	.	.	4AA/	.	.	.	.	.
.	.	.	.	16aa\	16a/	.	.	.	.	.	.	.	.	.	.	.	.	.	.	.	.	.
.	.	.	.	16aa\	16a/	.	.	.	.	.	.	.	.	.	.	.	.	.	.	.	.	.
.	.	.	.	16aa\JJ	16a/JJ	.	.	.	.	.	.	.	.	.	.	.	.	.	.	.	.	.
=74	=74	=74	=74	=74	=74	=74	=74	=74	=74	=74	=74	=74	=74	=74	=74	=74	=74	=74	=74	=74	=74	=74
*	*	*^	*	*	*	*	*	*	*	*	*	*	*	*	*	*	*	*	*	*	*	*
(4C#/	.	8g/	1A	.	16aa\LL	16a/LL	.	4E\	Ne-	Ma-	4a\	-vat	.	4gg\	-vat	.	4AA/	1A	.	1e	.	1ryy	1ryy
.	.	.	.	.	16aa\	16a/	.	.	.	.	.	.	.	.	.	.	.	.	.	.	.	.	.
.	.	4g/	.	.	16aa\	16a/	.	.	.	.	.	.	.	.	.	.	.	.	.	.	.	.	.
.	.	.	.	.	16aa\	16a/	.	.	.	.	.	.	.	.	.	.	.	.	.	.	.	.	.
4E/)	.	.	.	.	16aa\	16a/	.	4G\	.	.	4a\	Ne-	.	4ee\	Ne-	.	4r	.	.	.	.	.	.
.	.	.	.	.	16aa\	16a/	.	.	.	.	.	.	.	.	.	.	.	.	.	.	.	.	.
.	.	4g/	.	.	16aa\	16a/	.	.	.	.	.	.	.	.	.	.	.	.	.	.	.	.	.
.	.	.	.	.	16aa\JJ	16a/JJ	.	.	.	.	.	.	.	.	.	.	.	.	.	.	.	.	.
(4AA/	.	.	.	.	16aa\LL	16a/LL	.	4A\	-po-	.	4g\	-po-	Ma-	4cc#\	-po-	.	2r	.	.	.	.	.	.
.	.	.	.	.	16aa\	16a/	.	.	.	.	.	.	.	.	.	.	.	.	.	.	.	.	.
.	.	4g/	.	.	16aa\	16a/	.	.	.	.	.	.	.	.	.	.	.	.	.	.	.	.	.
.	.	.	.	.	16aa\	16a/	.	.	.	.	.	.	.	.	.	.	.	.	.	.	.	.	.
4C#/)	.	.	.	.	16aa\	16a/	.	4G\	-mu-	.	4g\	-mu-	.	4a\	-mu-	.	.	.	.	.	.	.	.
!	!	!	!	!	!	!	!	!LO:LB:g=original	!	!	!LO:LB:g=original	!	!	!	!	!	!	!	!	!	!	!	!
.	.	.	.	.	16aa\	16a/	.	.	.	.	.	.	.	.	.	.	.	.	.	.	.	.	.
.	.	8g/	.	.	16aa\	16a/	.	.	.	.	.	.	.	.	.	.	.	.	.	.	.	.	.
.	.	.	.	.	16aa\JJ	16a/JJ	.	.	.	.	.	.	.	.	.	.	.	.	.	.	.	.	.
*	*	*v	*v	*	*	*	*	*	*	*	*	*	*	*	*	*	*	*	*	*	*	*	*
=75	=75	=75	=75	=75	=75	=75	=75	=75	=75	=75	=75	=75	=75	=75	=75	=75	=75	=75	=75	=75	=75	=75
!	!	!LO:TX:t=P:problem=t.76-77 zapisane jako repetycja	!	!	!	!	!	!	!	!	!	!	!	!	!	!	!	!	!	!	!	!
!	!	!	!LO:DY:a:t=p:	!	!	!	!	!	!	!	!	!	!	!	!	!	!	!	!	!	!	!
4D\	.	4A/ 4f#	p	16aa\LL	16a/LL	.	4F#\	-ce-	-te-	4f#/	-ce-	-te-	4dd\	-ce-	.	4D\	4D/	.	1f#	.	1ryy	1ryy
.	.	.	.	16aa\	16a/	.	.	.	.	.	.	.	.	.	.	.	.	.	.	.	.	.
.	.	.	.	16aa\	16a/	.	.	.	.	.	.	.	.	.	.	.	.	.	.	.	.	.
.	.	.	.	16aa\	16a/	.	.	.	.	.	.	.	.	.	.	.	.	.	.	.	.	.
4D\	.	4r	.	16aa\	16a/	.	4D\	-nus	-is	4d/	-nus	-us	4ff#\	-nus	.	4r	4F#/	.	.	.	.	.
.	.	.	.	16aa\	16a/	.	.	.	.	.	.	.	.	.	.	.	.	.	.	.	.	.
.	.	.	.	16aa\	16a/	.	.	.	.	.	.	.	.	.	.	.	.	.	.	.	.	.
.	.	.	.	16aa\JJ	16a/JJ	.	.	.	.	.	.	.	.	.	.	.	.	.	.	.	.	.
4A\	.	4r	.	16aa\LL	16a/LL	.	4r	.	.	4r	.	.	4.dd\	.	.	2r	4D/	.	.	.	.	.
.	.	.	.	16aa\	16a/	.	.	.	.	.	.	.	.	.	.	.	.	.	.	.	.	.
.	.	.	.	16aa\	16a/	.	.	.	.	.	.	.	.	.	.	.	.	.	.	.	.	.
.	.	.	.	16aa\	16a/	.	.	.	.	.	.	.	.	.	.	.	.	.	.	.	.	.
4D\	.	4A/ 4f#	.	16aa\	16a/	.	4D\	Ne-	Ma	4f#/	Ne-	Ma-	.	.	.	.	4AA/	.	.	.	.	.
.	.	.	.	16aa\	16a/	.	.	.	.	.	.	.	.	.	.	.	.	.	.	.	.	.
.	.	.	.	16aa\	16a/	.	.	.	.	.	.	.	8aa\	Ne-	.	.	.	.	.	.	.	.
.	.	.	.	16aa\JJ	16a/JJ	.	.	.	.	.	.	.	.	.	.	.	.	.	.	.	.	.
=76	=76	=76	=76	=76	=76	=76	=76	=76	=76	=76	=76	=76	=76	=76	=76	=76	=76	=76	=76	=76	=76	=76
*	*	*^	*	*	*	*	*	*	*	*	*	*	*	*	*	*	*	*	*	*	*	*
(4C#/	.	8g/	1A	.	16aa\LL	16a/LL	.	4E\	-po-	.	4a\	-po-	-te-	4gg\	-po-	.	4AA/	1A	.	1e	.	1ryy	1ryy
.	.	.	.	.	16aa\	16a/	.	.	.	.	.	.	.	.	.	.	.	.	.	.	.	.	.
.	.	4g/	.	.	16aa\	16a/	.	.	.	.	.	.	.	.	.	.	.	.	.	.	.	.	.
.	.	.	.	.	16aa\	16a/	.	.	.	.	.	.	.	.	.	.	.	.	.	.	.	.	.
4E/)	.	.	.	.	16aa\	16a/	.	4G\	-mu-	.	4g\	-mu-	-us	4ee\	.	.	4r	.	.	.	.	.	.
.	.	.	.	.	16aa\	16a/	.	.	.	.	.	.	.	.	.	.	.	.	.	.	.	.	.
.	.	4g/	.	.	16aa\	16a/	.	.	.	.	.	.	.	.	.	.	.	.	.	.	.	.	.
.	.	.	.	.	16aa\JJ	16a/JJ	.	.	.	.	.	.	.	.	.	.	.	.	.	.	.	.	.
(4AA/	.	.	.	.	16aa\LL	16a/LL	.	4A\	-ce-	.	4g\	-ce-	.	4cc#\	-mu-	.	2ryy	.	.	.	.	.	.
.	.	.	.	.	16aa\	16a/	.	.	.	.	.	.	.	.	.	.	.	.	.	.	.	.	.
.	.	4g/	.	.	16aa\	16a/	.	.	.	.	.	.	.	.	.	.	.	.	.	.	.	.	.
.	.	.	.	.	16aa\	16a/	.	.	.	.	.	.	.	.	.	.	.	.	.	.	.	.	.
4C#/)	.	.	.	.	16aa\	16a/	.	4G\	-nus	len	4g\	-nus	len-	4a\	-ce-	.	.	.	.	.	.	.	.
.	.	.	.	.	16aa\	16a/	.	.	.	.	.	.	.	.	.	.	.	.	.	.	.	.	.
.	.	8g/	.	.	16aa\	16a/	.	.	.	.	.	.	.	.	.	.	.	.	.	.	.	.	.
.	.	.	.	.	16aa\JJ	16a/JJ	.	.	.	.	.	.	.	.	.	.	.	.	.	.	.	.	.
*	*	*v	*v	*	*	*	*	*	*	*	*	*	*	*	*	*	*	*	*	*	*	*	*
=77	=77	=77	=77	=77	=77	=77	=77	=77	=77	=77	=77	=77	=77	=77	=77	=77	=77	=77	=77	=77	=77	=77
4D\	.	4A/ 4f#	.	16aa\LL	16a/LL	.	4F#\	Vic-	Kars-	4f#/	vic-	-Kar-	4dd\	-mus	.	4D\	4D/	.	1f#	.	1ryy	1ryy
.	.	.	.	16aa\	16a/	.	.	.	.	.	.	.	.	.	.	.	.	.	.	.	.	.
.	.	.	.	16aa\	16a/	.	.	.	.	.	.	.	.	.	.	.	.	.	.	.	.	.
.	.	.	.	16aa\	16a/	.	.	.	.	.	.	.	.	.	.	.	.	.	.	.	.	.
4D\	.	4r	.	16aa\	16a/	.	4D\	-tor	-ky	4d/	-tor	-sky	4ff#\	vic-	.	4r	4F#/	.	.	.	.	.
!LO:LB:g=original	!	!	!	!	!	!	!	!	!	!	!	!	!	!	!	!	!	!	!	!	!	!
.	.	.	.	16aa\	16a/	.	.	.	.	.	.	.	.	.	.	.	.	.	.	.	.	.
.	.	.	.	16aa\	16a/	.	.	.	.	.	.	.	.	.	.	.	.	.	.	.	.	.
.	.	.	.	16aa\JJ	16a/JJ	.	.	.	.	.	.	.	.	.	.	.	.	.	.	.	.	.
4A\	.	4r	.	16aa\LL	16a/LL	.	4r	.	.	4r	.	.	4.aa\	-tor	.	2r	4D/	.	.	.	.	.
.	.	.	.	16aa\	16a/	.	.	.	.	.	.	.	.	.	.	.	.	.	.	.	.	.
.	.	.	.	16aa\	16a/	.	.	.	.	.	.	.	.	.	.	.	.	.	.	.	.	.
.	.	.	.	16aa\	16a/	.	.	.	.	.	.	.	.	.	.	.	.	.	.	.	.	.
4D\	.	4A/ 4f#	.	16aa\	16a/	.	4D\	vi-	Ma-	4f#\	vi-	.	.	.	.	.	4AA/	.	.	.	.	.
.	.	.	.	16aa\	16a/	.	.	.	.	.	.	.	.	.	.	.	.	.	.	.	.	.
.	.	.	.	16aa\	16a/	.	.	.	.	.	.	.	8ff#\	cor-	.	.	.	.	.	.	.	.
.	.	.	.	16aa\JJ	16a/JJ	.	.	.	.	.	.	.	.	.	.	.	.	.	.	.	.	.
=78	=78	=78	=78	=78	=78	=78	=78	=78	=78	=78	=78	=78	=78	=78	=78	=78	=78	=78	=78	=78	=78	=78
*	*	*^	*	*	*	*	*	*	*	*	*	*	*	*	*	*	*	*	*	*	*	*
(4C#/	.	8g/	1A	.	16aa\LL	16a/LL	.	4E\	-vat	.	4a\	-vat	.	4gg\	-di-	.	4AA/	1A	.	1e	.	1ryy	1ryy
!	!	!	!	!	!	!	!	!	!	!	!	!	!	!	!	!	!	!	!	!LO:LB:g=original	!	!	!
.	.	.	.	.	16aa\	16a/	.	.	.	.	.	.	.	.	.	.	.	.	.	.	.	.	.
.	.	4g/	.	.	16aa\	16a/	.	.	.	.	.	.	.	.	.	.	.	.	.	.	.	.	.
.	.	.	.	.	16aa\	16a/	.	.	.	.	.	.	.	.	.	.	.	.	.	.	.	.	.
4E/)	.	.	.	.	16aa\	16a/	.	4G\	Ne-	.	4g\	Ne-	.	4ee\	.	.	4r	.	.	.	.	.	.
.	.	.	.	.	16aa\	16a/	.	.	.	.	.	.	.	.	.	.	.	.	.	.	.	.	.
.	.	4g/	.	.	16aa\	16a/	.	.	.	.	.	.	.	.	.	.	.	.	.	.	.	.	.
.	.	.	.	.	16aa\JJ	16a/JJ	.	.	.	.	.	.	.	.	.	.	.	.	.	.	.	.	.
(4AA/	.	.	.	.	16aa\LL	16a/LL	.	4A\	-po-	.	4g\	-po-	Ma-	4cc#\	-am	.	2r	.	.	.	.	.	.
.	.	.	.	.	16aa\	16a/	.	.	.	.	.	.	.	.	.	.	.	.	.	.	.	.	.
.	.	4g/	.	.	16aa\	16a/	.	.	.	.	.	.	.	.	.	.	.	.	.	.	.	.	.
.	.	.	.	.	16aa\	16a/	.	.	.	.	.	.	.	.	.	.	.	.	.	.	.	.	.
4C#/)	.	.	.	.	16aa\	16a/	.	4G\	-mu-	.	4g\	-mu-	-te-	4a\	nos-	.	.	.	.	.	.	.	.
.	.	.	.	.	16aa\	16a/	.	.	.	.	.	.	.	.	.	.	.	.	.	.	.	.	.
.	.	8g/	.	.	16aa\	16a/	.	.	.	.	.	.	.	.	.	.	.	.	.	.	.	.	.
.	.	.	.	.	16aa\JJ	16a/JJ	.	.	.	.	.	.	.	.	.	.	.	.	.	.	.	.	.
!	!	!	!	!	!LO:LB:g=original	!	!	!	!	!	!	!	!	!	!	!	!	!	!	!	!	!	!
*	*	*v	*v	*	*	*	*	*	*	*	*	*	*	*	*	*	*	*	*	*	*	*	*
=79	=79	=79	=79	=79	=79	=79	=79	=79	=79	=79	=79	=79	=79	=79	=79	=79	=79	=79	=79	=79	=79	=79
!	!	!LO:TX:t=P:problem=t.80-81 zapisane jako repetycja	!	!	!	!	!	!	!	!	!	!	!	!	!	!LO:TX:t=P:problem=brak t. 80-81	!	!	!	!	!	!
4D\	.	4A/ 4f#	.	16aa\LL	16a/LL	.	4F#\	-ce-	-te-	4f#/	-ce-	-us	4.dd\	-tro-	.	1ryy	4D/	.	1f#	.	1ryy	1ryy
.	.	.	.	16aa\	16a/	.	.	.	.	.	.	.	.	.	.	.	.	.	.	.	.	.
.	.	.	.	16aa\	16a/	.	.	.	.	.	.	.	.	.	.	.	.	.	.	.	.	.
.	.	.	.	16aa\	16a/	.	.	.	.	.	.	.	.	.	.	.	.	.	.	.	.	.
4D\	.	4r	.	16aa\	16a/	.	4D\	-nus	-us	4d/	-nus	.	.	.	.	.	4F#/	.	.	.	.	.
.	.	.	.	16aa\	16a/	.	.	.	.	.	.	.	.	.	.	.	.	.	.	.	.	.
.	.	.	.	16aa\	16a/	.	.	.	.	.	.	.	8ff#\	.	.	.	.	.	.	.	.	.
.	.	.	.	16aa\JJ	16a/JJ	.	.	.	.	.	.	.	.	.	.	.	.	.	.	.	.	.
4A\	.	4r	.	16aa\LL	16a/LL	.	4r	.	.	4r	.	.	4aa\	-rum	.	.	4D/	.	.	.	.	.
.	.	.	.	16aa\	16a/	.	.	.	.	.	.	.	.	.	.	.	.	.	.	.	.	.
.	.	.	.	16aa\	16a/	.	.	.	.	.	.	.	.	.	.	.	.	.	.	.	.	.
.	.	.	.	16aa\	16a/	.	.	.	.	.	.	.	.	.	.	.	.	.	.	.	.	.
4D\	.	4A/ 4f#	.	16aa\	16a/	.	4D\	Ne-	Ma-	4f#/	Ne-	Ma-	4ff#\	nos-	.	.	4AA/	.	.	.	.	.
.	.	.	.	16aa\	16a/	.	.	.	.	.	.	.	.	.	.	.	.	.	.	.	.	.
.	.	.	.	16aa\	16a/	.	.	.	.	.	.	.	.	.	.	.	.	.	.	.	.	.
.	.	.	.	16aa\JJ	16a/JJ	.	.	.	.	.	.	.	.	.	.	.	.	.	.	.	.	.
=80	=80	=80	=80	=80	=80	=80	=80	=80	=80	=80	=80	=80	=80	=80	=80	=80	=80	=80	=80	=80	=80	=80
*	*	*^	*	*	*	*	*	*	*	*	*	*	*	*	*	*	*	*	*	*	*	*
(4C#/	.	8g/	1A	.	16aa\LL	16a/LL	.	4E\	-po-	-te-	4a\	-po-	-te-	4gg\	.	.	1ryy	1A	.	1e	.	1ryy	1ryy
.	.	.	.	.	16aa\	16a/	.	.	.	.	.	.	.	.	.	.	.	.	.	.	.	.	.
.	.	4g/	.	.	16aa\	16a/	.	.	.	.	.	.	.	.	.	.	.	.	.	.	.	.	.
.	.	.	.	.	16aa\	16a/	.	.	.	.	.	.	.	.	.	.	.	.	.	.	.	.	.
4E/)	.	.	.	.	16aa\	16a/	.	4G\	-mu-	-us	4g\	-mu-	-us	4ee\	.	.	.	.	.	.	.	.	.
.	.	.	.	.	16aa\	16a/	.	.	.	.	.	.	.	.	.	.	.	.	.	.	.	.	.
.	.	4g/	.	.	16aa\	16a/	.	.	.	.	.	.	.	.	.	.	.	.	.	.	.	.	.
.	.	.	.	.	16aa\JJ	16a/JJ	.	.	.	.	.	.	.	.	.	.	.	.	.	.	.	.	.
.	.	.	.	.	.	.	.	.	.	.	.	.	.	8qqdd/	.	.	.	.	.	.	.	.	.
(4AA/	.	.	.	.	16aa\LL	16a/LL	.	4A\	-ce-	len	4g\	-ce-	.	4cc#\	-tro-	.	.	.	.	.	.	.	.
.	.	.	.	.	16aa\	16a/	.	.	.	.	.	.	.	.	.	.	.	.	.	.	.	.	.
.	.	4g/	.	.	16aa\	16a/	.	.	.	.	.	.	.	.	.	.	.	.	.	.	.	.	.
.	.	.	.	.	16aa\	16a/	.	.	.	.	.	.	.	.	.	.	.	.	.	.	.	.	.
.	.	.	.	.	.	.	.	.	.	.	.	.	.	8qqb/	.	.	.	.	.	.	.	.	.
4C#/)	.	.	.	.	16aa\	16a/	.	4G\	-nus	.	4g\	-nus	len	4a\	.	.	.	.	.	.	.	.	.
!	!	!	!	!	!	!	!	!	!	!	!	!	!	!LO:LB:g=original	!	!	!	!	!	!	!	!	!
.	.	.	.	.	16aa\	16a/	.	.	.	.	.	.	.	.	.	.	.	.	.	.	.	.	.
.	.	8g/	.	.	16aa\	16a/	.	.	.	.	.	.	.	.	.	.	.	.	.	.	.	.	.
.	.	.	.	.	16aa\JJ	16a/JJ	.	.	.	.	.	.	.	.	.	.	.	.	.	.	.	.	.
*	*	*v	*v	*	*	*	*	*	*	*	*	*	*	*	*	*	*	*	*	*	*	*	*
=81	=81	=81	=81	=81	=81	=81	=81	=81	=81	=81	=81	=81	=81	=81	=81	=81	=81	=81	=81	=81	=81	=81
4D\	.	2A/ 2f#	.	16aa\LL	16a/LL	.	4F#\	Vic-	Kars-	4f#/	vic-	Kars-	4dd\	-rum	.	4D\	2d\	.	2f#\	.	1ryy	1ryy
.	.	.	.	16aa\	16a/	.	.	.	.	.	.	.	.	.	.	.	.	.	.	.	.	.
.	.	.	.	16aa\	16a/	.	.	.	.	.	.	.	.	.	.	.	.	.	.	.	.	.
.	.	.	.	16aa\	16a/	.	.	.	.	.	.	.	.	.	.	.	.	.	.	.	.	.
4DD/	.	.	.	16aa\	16a/	.	4D\	-tor	-ky	4d/	-tor	-ky	4ff#\	.	.	4r	.	.	.	.	.	.
.	.	.	.	16aa\	16a/	.	.	.	.	.	.	.	.	.	.	.	.	.	.	.	.	.
.	.	.	.	16aa\	16a/	.	.	.	.	.	.	.	.	.	.	.	.	.	.	.	.	.
.	.	.	.	16aa\JJ	16a/JJ	.	.	.	.	.	.	.	.	.	.	.	.	.	.	.	.	.
2r	.	2r	.	2r	2ryy	.	4r	.	.	4r	.	.	2dd\	vi-	.	2r	2r	.	2r	.	.	.
.	.	.	.	.	.	.	4F#\	Vi-	.	4a\	vi-	.	.	.	.	.	.	.	.	.	.	.
!	!	!	!	!	!	!	!LO:LB:g=original	!	!	!	!	!	!	!	!	!	!	!	!	!	!	!
*	*	*	*	*v	*v	*	*	*	*	*	*	*	*	*	*	*	*	*	*	*	*	*
=82	=82	=82	=82	=82	=82	=82	=82	=82	=82	=82	=82	=82	=82	=82	=82	=82	=82	=82	=82	=82	=82
!	!	!	!	!LO:TX:a:t=1	!	!	!	!	!	!	!	!	!	!	!	!	!	!	!	!	!
1r	.	1r	.	1r	.	4G\	-vat	.	4.b\	-vat	.	4ee\	-vat	.	1r	1r	.	1r	.	1ryy	1ryy
.	.	.	.	.	.	4F#\	.	.	.	.	.	4dd\	.	.	.	.	.	.	.	.	.
.	.	.	.	.	.	.	.	.	8a\	.	.	.	.	.	.	.	.	.	.	.	.
.	.	.	.	.	.	4E\	Prae-	.	4g\	Pro-	.	4cc#\	Prae-	.	.	.	.	.	.	.	.
.	.	.	.	.	.	4D\	.	.	4f#\	.	.	4dd\	.	.	.	.	.	.	.	.	.
=83	=83	=83	=83	=83	=83	=83	=83	=83	=83	=83	=83	=83	=83	=83	=83	=83	=83	=83	=83	=83	=83
2r	.	2r	.	2r	.	2C#\	-ses	.	2e/	-ſes	.	2gg\	-ses	.	2r	2r	.	2r	.	1ryy	1ryy
!	!	!	!	!	!	!	!	!	!	!	!	!	!	!	!	!LO:PB:g=original	!	!	!	!	!
*	*	*tremolo	*	*	*	*	*	*	*	*	*	*	*	*	*	*	*	*	*	*	*
8A\L	.	16ccc#\LL	.	16a\ 16ggLL	.	4r	.	.	4r	.	.	4r	.	.	4r	4A/	.	4e\	.	.	.
.	.	16ccc#\	.	16a\ 16gg	.	.	.	.	.	.	.	.	.	.	.	.	.	.	.	.	.
8A\	.	16ccc#\	.	16a\ 16gg	.	.	.	.	.	.	.	.	.	.	.	.	.	.	.	.	.
.	.	16ccc#\	.	16a\ 16gg	.	.	.	.	.	.	.	.	.	.	.	.	.	.	.	.	.
8A\	.	16ccc#\	.	16a\ 16gg	.	4A\	ac	.	4cc#\	ac	.	4gg\	ac	.	4AA/	4A/	.	4e\	.	.	.
.	.	16ccc#\	.	16a\ 16gg	.	.	.	.	.	.	.	.	.	.	.	.	.	.	.	.	.
8A\J	.	16ccc#\	.	16a\ 16gg	.	.	.	.	.	.	.	.	.	.	.	.	.	.	.	.	.
.	.	16ccc#\JJ	.	16a\ 16ggJJ	.	.	.	.	.	.	.	.	.	.	.	.	.	.	.	.	.
=84	=84	=84	=84	=84	=84	=84	=84	=84	=84	=84	=84	=84	=84	=84	=84	=84	=84	=84	=84	=84	=84
*Xtremolo	*	*	*	*	*	*	*	*	*	*	*	*	*	*	*	*	*	*	*	*	*
8d\L	.	16ddd\LL	.	16ff#\LL	.	4d\	Pa-	.	4dd\	Pa-	.	4ff#\	Pa-	.	4D\	4d\	.	4f#\	.	1ryy	1ryy
.	.	16ddd\	.	16ff#\	.	.	.	.	.	.	.	.	.	.	.	.	.	.	.	.	.
8d\	.	16ddd\	.	16ff#\	.	.	.	.	.	.	.	.	.	.	.	.	.	.	.	.	.
.	.	16ddd\JJ	.	16ff#\JJ	.	.	.	.	.	.	.	.	.	.	.	.	.	.	.	.	.
8G\	.	16gg\LL	.	16ee\LL	.	4F#\	-ter	.	4g\	-ter	.	4ee\	-ter	.	4D\	4e\	.	4g\	.	.	.
.	.	16gg\	.	16ee\	.	.	.	.	.	.	.	.	.	.	.	.	.	.	.	.	.
8G\J	.	16gg\	.	16ee\	.	.	.	.	.	.	.	.	.	.	.	.	.	.	.	.	.
!LO:LB:g=original	!	!	!	!	!	!	!	!	!	!	!	!	!	!	!	!	!	!	!	!	!
.	.	16gg\JJ	.	16ee\JJ	.	.	.	.	.	.	.	.	.	.	.	.	.	.	.	.	.
!LO:TX:t=P:problem=mixed beam	!	!	!	!	!	!	!	!	!	!	!	!	!	!	!	!	!	!	!	!	!
8A\L	.	16ff#\LL	.	16dd\LL	.	4A\	.	.	4f#\	.	.	4dd\	.	.	4AA/	4d\	.	4f#\	.	.	.
.	.	16ff#\	.	16dd\	.	.	.	.	.	.	.	.	.	.	.	.	.	.	.	.	.
8A\	.	16ff#\	.	16dd\	.	.	.	.	.	.	.	.	.	.	.	.	.	.	.	.	.
.	.	16ff#\JJ	.	16dd\JJ	.	.	.	.	.	.	.	.	.	.	.	.	.	.	.	.	.
8AA/	.	16ee\LL	.	16cc#\LL	.	4AA/	nos-	.	4e\	nos-	.	4cc#\	nos-	.	4AA/	4A\	.	4e\	.	.	.
!	!	!	!	!	!	!	!	!	!LO:LB:g=original	!	!	!	!	!	!	!	!	!	!	!	!
.	.	16ee\	.	16cc#\	.	.	.	.	.	.	.	.	.	.	.	.	.	.	.	.	.
8AA/J	.	16ee\	.	16cc#\	.	.	.	.	.	.	.	.	.	.	.	.	.	.	.	.	.
.	.	16ee\JJ	.	16cc#\JJ	.	.	.	.	.	.	.	.	.	.	.	.	.	.	.	.	.
=85	=85	=85	=85	=85	=85	=85	=85	=85	=85	=85	=85	=85	=85	=85	=85	=85	=85	=85	=85	=85	=85
*tremolo	*	*	*	*	*	*	*	*	*	*	*	*	*	*	*	*	*	*	*	*	*
2D\	.	2dd\	.	2dd\	.	2D\	-ter	.	2f#\	-ter	.	2dd\	-ter	.	4D\	2F#/	.	2d\	.	1ryy	1ryy
!	!	!LO:LB:g=original	!	!	!	!	!	!	!	!	!	!	!	!	!	!	!	!	!	!	!
.	.	.	.	.	.	.	.	.	.	.	.	.	.	.	4r	.	.	.	.	.	.
2r	.	2r	.	2r	.	4r	.	.	4r	.	.	4r	.	.	2r	2r	.	2r	.	.	.
!	!	!	!	!	!	!	!	!	!	!	!	!	!	!	!LO:LB:g=original	!	!	!	!	!	!
.	.	.	.	.	.	4F#\	vi-	.	4a\	vi-	.	4dd\	vi-	.	.	.	.	.	.	.	.
=86	=86	=86	=86	=86	=86	=86	=86	=86	=86	=86	=86	=86	=86	=86	=86	=86	=86	=86	=86	=86	=86
!	!	!LO:TX:a:t=1	!	!LO:TX:a:t=1	!	!	!	!	!	!	!	!	!	!	!	!	!	!	!	!	!
1r	.	1r	.	1r	.	4G\	.	.	4b\	-vat	.	4ee\	-vat	.	1r	1r	.	1r	.	1ryy	1ryy
.	.	.	.	.	.	4F#\	-vat	.	4a\	.	.	4dd\	.	.	.	.	.	.	.	.	.
.	.	.	.	.	.	4E\	Prae-	.	4g\	Proe-	.	4cc#\	Prae-	.	.	.	.	.	.	.	.
.	.	.	.	.	.	4D\	.	.	4f#\	.	.	4dd\	.	.	.	.	.	.	.	.	.
=87	=87	=87	=87	=87	=87	=87	=87	=87	=87	=87	=87	=87	=87	=87	=87	=87	=87	=87	=87	=87	=87
2r	.	2r	.	2r	.	2C#\	-ses	.	2e/	-ses	.	2gg\	-ses	.	2r	2r	.	2r	.	1ryy	1ryy
8A\L	.	16ccc#\LL	.	16a\ 16ggLL	.	4r	.	.	4r	.	.	4r	.	.	2AA/	4A/	.	4e\	.	.	.
.	.	16ccc#\	.	16a\ 16gg	.	.	.	.	.	.	.	.	.	.	.	.	.	.	.	.	.
8A\	.	16ccc#\	.	16a\ 16gg	.	.	.	.	.	.	.	.	.	.	.	.	.	.	.	.	.
.	.	16ccc#\	.	16a\ 16gg	.	.	.	.	.	.	.	.	.	.	.	.	.	.	.	.	.
8A\	.	16ccc#\	.	16a\ 16gg	.	4A\	ac	.	4cc#\	ac	.	4gg\	ac	.	.	4A/	.	4e\	.	.	.
.	.	16ccc#\	.	16a\ 16gg	.	.	.	.	.	.	.	.	.	.	.	.	.	.	.	.	.
8A\J	.	16ccc#\	.	16a\ 16gg	.	.	.	.	.	.	.	.	.	.	.	.	.	.	.	.	.
.	.	16ccc#\JJ	.	16a\ 16ggJJ	.	.	.	.	.	.	.	.	.	.	.	.	.	.	.	.	.
*Xtremolo	*	*	*	*	*	*	*	*	*	*	*	*	*	*	*	*	*	*	*	*	*
=88	=88	=88	=88	=88	=88	=88	=88	=88	=88	=88	=88	=88	=88	=88	=88	=88	=88	=88	=88	=88	=88
8d\L	.	16ddd\LL	.	16ff#\LL	.	4d\	Pa-	.	4dd\	Pa-	.	4ff#\	Pa-	.	2D\	4d\	.	4f#\	.	1ryy	1ryy
.	.	16ddd\	.	16ff#\	.	.	.	.	.	.	.	.	.	.	.	.	.	.	.	.	.
8d\	.	16ddd\	.	16ff#\	.	.	.	.	.	.	.	.	.	.	.	.	.	.	.	.	.
.	.	16ddd\JJ	.	16ff#\JJ	.	.	.	.	.	.	.	.	.	.	.	.	.	.	.	.	.
8G/	.	16gg\LL	.	16ee\LL	.	4F#\	-ter	.	4g\	-ter	.	4ee\	-ter	.	.	4e\	.	4g\	.	.	.
.	.	16gg\	.	16ee\	.	.	.	.	.	.	.	.	.	.	.	.	.	.	.	.	.
8G/J	.	16gg\	.	16ee\	.	.	.	.	.	.	.	.	.	.	.	.	.	.	.	.	.
.	.	16gg\JJ	.	16ee\JJ	.	.	.	.	.	.	.	.	.	.	.	.	.	.	.	.	.
!LO:TX:t=P:problem=mixed beam	!	!	!	!	!	!	!	!	!	!	!	!	!	!	!	!	!	!	!	!	!
8A\L	.	16ff#\LL	.	16dd\LL	.	4A\	.	.	4f#\	nos-	.	4dd\	nnos-	.	2AA/	4d\	.	4f#\	.	.	.
.	.	16ff#\	.	16dd\	.	.	.	.	.	.	.	.	.	.	.	.	.	.	.	.	.
8A\	.	16ff#\	.	16dd\	.	.	.	.	.	.	.	.	.	.	.	.	.	.	.	.	.
.	.	16ff#\JJ	.	16dd\JJ	.	.	.	.	.	.	.	.	.	.	.	.	.	.	.	.	.
8AA/	.	16ee\LL	.	16cc#\LL	.	4AA/	nos-	.	4e\	.	.	4cc#\	.	.	.	4A\	.	4e\	.	.	.
!	!	!	!	!	!	!LO:LB:g=original	!	!	!	!	!	!LO:LB:g=original	!	!	!	!	!	!LO:LB:g=original	!	!	!
.	.	16ee\	.	16cc#\	.	.	.	.	.	.	.	.	.	.	.	.	.	.	.	.	.
8AA/J	.	16ee\	.	16cc#\	.	.	.	.	.	.	.	.	.	.	.	.	.	.	.	.	.
.	.	16ee\JJ	.	16cc#\JJ	.	.	.	.	.	.	.	.	.	.	.	.	.	.	.	.	.
*	*	*	*	*Xtremolo	*	*	*	*	*	*	*	*	*	*	*	*	*	*	*	*	*
*	*	*Xtremolo	*	*	*	*	*	*	*	*	*	*	*	*	*	*	*	*	*	*	*
=89	=89	=89	=89	=89	=89	=89	=89	=89	=89	=89	=89	=89	=89	=89	=89	=89	=89	=89	=89	=89	=89
!	!	!	!	!LO:LB:g=original	!	!	!	!	!	!	!	!	!	!	!	!	!	!	!	!	!
4D/	.	4dd\	.	4dd\	.	4D\	-ter	.	2f#\	-ter	.	4dd\	-ter	.	4D\	4F#/	.	4d\	.	1ryy	1ryy
4r	.	4r	.	4r	.	4r	.	.	.	.	.	4r	.	.	4r	8.f#\L	.	8.a\L	.	.	.
.	.	.	.	.	.	.	.	.	.	.	.	.	.	.	.	16e\Jk	.	16g\Jk	.	.	.
4r	.	4r	.	4r	.	4r	.	.	4r	.	.	4r	.	.	4r	4d\	.	4f#\	.	.	.
4AA/	.	4a\ 4ee	.	4a\ 4ccc#	.	4A\	vi-	.	4cc#\	vi-	.	4ee\	vi-	.	4AA/	4A\	.	4e\	.	.	.
=90	=90	=90	=90	=90	=90	=90	=90	=90	=90	=90	=90	=90	=90	=90	=90	=90	=90	=90	=90	=90	=90
4D/	.	4d\ 4a 4ff#	.	4a\ 4ddd	.	4d\	-vat	.	2dd\	-vat	.	4ff#\	-vat	.	4D\	4F#/	.	4d\	.	1ryy	1ryy
4r	.	4r	.	4r	.	4r	.	.	.	.	.	4r	.	.	4r	8.f#\L	.	8.a\L	.	.	.
.	.	.	.	.	.	.	.	.	.	.	.	.	.	.	.	16e\Jk	.	16g\Jk	.	.	.
4r	.	4r	.	4r	.	4r	.	.	4r	.	.	4r	.	.	4r	4d\	.	4f#\	.	.	.
!LO:LB:g=original	!	!	!	!	!	!	!	!	!	!	!	!	!	!	!	!	!	!	!	!	!
4AA/	.	4a\ 4ee	.	4a\ 4ccc#	.	4A\	vi-	.	4cc#\	vi-	.	4ee\	vi-	.	4AA/	4A\	.	4e\	.	.	.
=91	=91	=91	=91	=91	=91	=91	=91	=91	=91	=91	=91	=91	=91	=91	=91	=91	=91	=91	=91	=91	=91
2D\	.	2f#\ 2dd	.	2d\ 2a 2ddd	.	2D\	-vat.	.	2dd\	-vat.	.	2dd\	-vat.	.	4D\	2D/	.	2d\	.	1ryy	1ryy
.	.	.	.	.	.	.	.	.	.	.	.	.	.	.	4r	.	.	.	.	.	.
!LO:TX:a:t=il Fine	!	!	!	!	!	!	!	!	!	!	!	!	!	!	!	!	!	!	!	!	!
2r	.	2r	.	2r	.	2r	.	.	2r	.	.	2r	.	.	2r	2r	.	2r	.	.	.
==	==	==	==	==	==	==	==	==	==	==	==	==	==	==	==	==	==	==	==	==	==
*-	*-	*-	*-	*-	*-	*-	*-	*-	*-	*-	*-	*-	*-	*-	*-	*-	*-	*-	*-	*-	*-
!!!RDF**kern: | = vertical stroke
!!!RDF**kern: > = above
!!!RDF**kern: < = below
!!!system-decoration: [(s1,s2)][(s3,s4)]s5[(s6,s7,s8)][(s9,s10,s11)]
!!!ENC: Marcin Jachim
!!!END: 2020-10-07
!!!ENC: Julita Ruszuk
!!!END: 2022-01-28
!!!YEC: Copyright 2022 Narodowy Instytut Fryderyka Chopina (https://polishscores.org)
!!!YEM: License CC-BY-4.0 (https://creativecommons.org/licenses/by/4.0)
